!!!!SEGMENT: pl-sa--152-a-iv-2--003_bauer--missa-in-f-credo.krn
!!!cenid: 17xx:674
!!!COM: Bauer
!!!COM-rismID: pe30005329
!!!CDT:
!!!CNT:
!!!OPR: Missa in F
!!!OTL: Credo
!!!OMV: 003
!!!PDT:
!!!AGN: Sacred; Mass
!!!SMS-siglum: PL-SA
!!!SMS-shelfmark: 152/A IV 2
!!!SMS-shelfwork: 001-003 M
!!!SMS-variant:
!!!SMS-altvar:
!!!NIFC-rismSourceID: 1001035512
!!!NIFC-islandoraID:
!!!URL-pdf-islandora:
!!!URL-scan: https://bc.bdsandomierz.pl/dlibra/publication/1538/edition/1506/content @EN{Scan in the Sandomierz Diocese Digital Library} @PL{Skany w portalu Cyfrowa Biblioteka Diecezjalna w Sandomierzu}
!!!ONB-nifc: UWAGA: części Mszy: Kyrie, Gloria, Credo, Sanctus, Benedictus, Agnus Dei, Dona nobis
!!!AIN: 4 empty 1 flt 1 tenor 2 violn 1 vox
!!!key:
**kern	**kern	**dynam	**kern	**dynam	**kern	**text	**kern	**text	**kern	**text	**kern	**kern	**kern
*part9	*part8	*part8	*part7	*part7	*part6	*part6	*part5	*part5	*part4	*part4	*part3	*part2	*part1
*staff9	*staff8	*	*staff7	*	*staff6	*staff6	*staff5	*staff5	*staff4	*staff4	*staff3	*staff2	*staff1
*group5	*	*group4	*group4	*	*group3	*	*group3	*	*group3	*	*group2	*group2	*group1
*Iempty	*Ivioln	*	*Ivioln	*	*Iempty	*	*Itenor	*	*Ivox	*	*Iempty	*Iempty	*Iflt
*I"Fundamento	*I"Violino Secondo:	*	*I"Violino Primo	*	*I"Baſso	*	*I"Tenore	*	*I"Canto	*	*I"Cornu Secundo in F	*I"Cornu Primo in F	*I"Flauto Primo
*I'fund	*I'vl 2	*	*I'vl 1	*	*I'B	*	*I'T	*	*I'C	*	*I'cor 2	*I'cor 1	*I'fl 1
*clefF4	*clefG2	*	*clefG2	*	*clefF4	*	*clefC4	*	*clefC1	*	*clefG2	*clefG2	*clefG2
*ITrd0c0	*	*	*	*	*	*	*	*	*	*	*ITrd4c7	*ITrd4c7	*
*k[b-]	*k[b-]	*	*k[b-]	*	*k[b-]	*	*k[b-]	*	*k[b-]	*	*k[b-]	*k[b-]	*k[b-]
*F:	*F:	*	*F:	*	*F:	*	*F:	*	*F:	*	*F:	*F:	*F:
*M3/4	*M3/4	*	*M3/4	*	*M3/4	*	*M3/4	*	*M3/4	*	*M3/4	*M3/4	*M3/4
*>[ABC]	*>[ABC]	*	*>[ABC]	*	*>[ABC]	*	*>[ABC]	*	*>[ABC]	*	*>[ABC]	*>[ABC]	*>[ABC]
=1	=1	=1	=1	=1	=1	=1	=1	=1	=1	=1	=1	=1	=1
*>A	*>A	*	*>A	*	*>A	*	*>A	*	*>A	*	*>A	*>A	*>A
*	*	*	*	*	*	*	*	*	*	*	*	*2\right	*2\right
*	*^	*	*	*	*	*	*	*	*	*	*	*	*
*	*tremolo	*tremolo	*	*	*	*	*	*	*	*	*	*	*	*
*	*2\right	*2\right	*	*	*	*	*	*	*	*	*	*	*	*
!	!LO:TX:a:t=All(egr)o	!	!	!	!	!	!	!	!	!	!	!	!LO:TX:a:t=problem:2\right:global	!
!LO:TX:a:t=moderatto	!l	!	!	!	!	!	!	!LO:TX:a:t=problem:partia tenoru jest napisana inną czcionką\ni jest niemal dokładnym duplikatem partii basu.	!	!	!	!LO:TX:a:t=All(egr)o:	!LO:TX:a:t=All(egr)o:	!LO:TX:a:t=All(egro)
8F\L	16a/L	16f\L	.	8a/L 8ff	.	4F\	Pa-	4F/	Pa-	4ff\	Pa-	2.A/	2.f\	2.fff\
.	16a/	16f\	.	.	.	.	.	.	.	.	.	.	.	.
8C\	16a/	16f\	.	(32f/LL	.	.	.	.	.	.	.	.	.	.
.	.	.	.	32e/	.	.	.	.	.	.	.	.	.	.
.	16a/	16f\	.	32f/	.	.	.	.	.	.	.	.	.	.
.	.	.	.	32g/JJJ)	.	.	.	.	.	.	.	.	.	.
!	!	!	!	!LO:TX:a:t=problem:mixed beam	!	!	!	!	!	!	!	!	!	!
8F\	16a/	16f\	.	8f/L	.	8A\	-trem	8A/	-trem	8ff\	-trem	.	.	.
.	16a/	16f	.	.	.	.	.	.	.	.	.	.	.	.
8C\	16a/	16f\	.	8ff\J	.	8F\	om-	8F/	om-	8ff\	om-	.	.	.
.	16a/	16f\	.	.	.	.	.	.	.	.	.	.	.	.
8F\	16a/	16f\	.	(16aa\LL	.	8A\	-ni-	8A/	-ni-	8ff\	-ni-	.	.	.
.	16a/	16f\	.	16gg\)	.	.	.	.	.	.	.	.	.	.
8C\J	16a/	16f\	.	(16gg\	.	8F\	-po-	8F/	-po-	8ff\	-po-	.	.	.
.	16a/J	16f\J	.	16ff\JJ)	.	.	.	.	.	.	.	.	.	.
=2	=2	=2	=2	=2	=2	=2	=2	=2	=2	=2	=2	=2	=2	=2
*2\right	*	*	*	*	*	*	*	*	*	*	*	*	*	*
*tremolo	*	*	*	*	*	*	*	*	*	*	*	*	*	*
8E\L	16b-/L	16g\L	.	8e/L 8cc 8gg	.	4c\	-ten-	4c\	-ten-	4gg\	-ten-	2.c/	2.g\	2.eee\
.	16b-/	16g\	.	.	.	.	.	.	.	.	.	.	.	.
8C\	16b-/	16g\	.	(32cc/LL	.	.	.	.	.	.	.	.	.	.
.	.	.	.	32bn/	.	.	.	.	.	.	.	.	.	.
.	16b-/	16g\	.	32cc/	.	.	.	.	.	.	.	.	.	.
.	.	.	.	32dd/JJJ)	.	.	.	.	.	.	.	.	.	.
8E\	16b-/	16g\	.	8cc\L	.	8c\	-tem	8c\	-tem	8gg\	-tem	.	.	.
.	16b-/	16g\	.	.	.	.	.	.	.	.	.	.	.	.
8C\	16b-/	16g\	.	8gg\J	.	8A\	.	8A/	.	8gg\	.	.	.	.
.	16b-	16g\	.	.	.	.	.	.	.	.	.	.	.	.
8E\	16b-/	16g\	.	(16bb-\LL	.	8c\	fac-	8c\	fac-	8gg\	fac_to-	.	.	.
.	16b-/	16g\	.	16aa\)	.	.	.	.	.	.	.	.	.	.
8C\J	16b-/	16g\	.	(16aa\	.	8A\	-torem	8A/	-torem	8gg\	-rem	.	.	.
.	16b-/J	16g\J	.	16gg\JJ)	.	.	.	.	.	.	.	.	.	.
*	*v	*v	*	*	*	*	*	*	*	*	*	*	*	*
=3	=3	=3	=3	=3	=3	=3	=3	=3	=3	=3	=3	=3	=3
8F\L	16ff\LL	.	16aa\LL	.	8B-\	Cae-	8B-\	Cae-	8aa\	cae-	4f\	4a\	2fff\
.	16aa\	.	16ccc\	.	.	.	.	.	.	.	.	.	.
8A\J	16ff\	.	16aa\	.	16G\	-li	16G/	-li	16aa\	-li	.	.	.
.	16a\JJ	.	16ff\JJ	.	16G\	et	16G/	et	16ff\	et	.	.	.
!LO:TX:a:t=problem:mixed beam	!	!	!	!	!	!	!	!	!	!	!	!	!
8B-\L	(8cc\L	.	(8aa\L	.	4c\	ter-	4c\	ter-	4gg\	ter-	4g\	4b-\	.
8G\	8b-\)	.	8gg\)	.	.	.	.	.	.	.	.	.	.
8c\	(8a\	.	(8ff\	.	4C/	-rae	4C/	-rae	4ee\	-rae	4c/	4g\	4eee\
8C/J	8g\J)	.	8ee\J)	.	.	.	.	.	.	.	.	.	.
=4	=4	=4	=4	=4	=4	=4	=4	=4	=4	=4	=4	=4	=4
*	*^	*	*	*	*	*	*	*	*	*	*	*	*
8F\L	16cc/L	16f\L	.	8a/L 8ff	.	8F\	vi-	8F/	vi-	8ff\	vi-	2.A/	2.f\	4fff\
.	16cc/	16f\	.	.	.	.	.	.	.	.	.	.	.	.
8C\	16cc/	16f\	.	(32f/LL	.	8A\	-ſi-	8A/	-ſi-	8ff\	-ſi-	.	.	.
.	.	.	.	32e/	.	.	.	.	.	.	.	.	.	.
.	16cc/	16f\	.	32f/	.	.	.	.	.	.	.	.	.	.
.	.	.	.	32g/JJJ)	.	.	.	.	.	.	.	.	.	.
!	!	!	!	!LO:TX:a:t=problem:mixed beam	!	!	!	!	!	!	!	!	!	!
8F\	16cc/	16f\	.	8f/L	.	8F\	-bi-	8F/	-bi-	8ff\	-bi-	.	.	4fff\
.	16cc/	16f\	.	.	.	.	.	.	.	.	.	.	.	.
8C\	16cc/	16f\	.	8ff\J	.	16A\	-li-	16A/	-li-	16ff\	-li-	.	.	.
.	16cc/	16f\	.	.	.	16A\	-um	16A/	-um	16ff\	-um	.	.	.
!	!	!	!	!	!	!LO:LB:g=original	!	!	!	!	!	!	!	!
8F\	16cc/	16f\	.	(16aa\LL	.	8F\	om-	8F/	om-	16ff\	om-	.	.	4fff\
.	16cc/	16f\	.	16gg\)	.	.	.	.	.	16ff\	-ni-	.	.	.
8C\J	16cc/	16f\	.	(16gg\	.	16A\	-ni-	16A/	-ni-	8ff\	-um	.	.	.
.	16cc/J	16f\J	.	16ff\JJ)	.	16A\	-um	16A/	-um,	.	.	.	.	.
!	!	!	!	!	!	!	!	!LO:LB:g=original	!	!LO:LB:g=original	!	!	!	!
=5	=5	=5	=5	=5	=5	=5	=5	=5	=5	=5	=5	=5	=5	=5
8E\L	16b-/L	16g\L	.	8e/ 8cc 8gg	.	8C\	et	8C/	et	8gg\	et	2.c/	2.g\	2.eee\
.	16b-/	16g\	.	.	.	.	.	.	.	.	.	.	.	.
8C\	16b-/	16g\	.	(32cc\LLL	.	8E\	in-	8E/	in-	8gg\	invi-	.	.	.
.	.	.	.	32bn\	.	.	.	.	.	.	.	.	.	.
.	16b-/	16g\	.	32cc\	.	.	.	.	.	.	.	.	.	.
.	.	.	.	32dd\JJJ)	.	.	.	.	.	.	.	.	.	.
8E\	16b-/	16g\	.	8cc\L	.	8G\	-vi-	8G/	-vi-	8gg\	-ſi-	.	.	.
.	16b-/	16g\	.	.	.	.	.	.	.	.	.	.	.	.
8C\	16b-/	16g\	.	8gg\J	.	8c\	-ſi-	8c\	-ſi-	8gg\	-bi-	.	.	.
.	16b-/	16g\	.	.	.	.	.	.	.	.	.	.	.	.
8E\	16b-/	16g\	.	(16bb-\LL	.	8c\	-bi-	8c\	-bi-	8gg\	-li-	.	.	.
.	16b-/	16g\	.	16aa\)	.	.	.	.	.	.	.	.	.	.
8C\J	16b-/	16g\	.	(16aa\	.	16c\	-li-	16c\	-li-	16gg\	-um	.	.	.
.	16b-/J	16g\J	.	16gg\JJ)	.	16c\	-um	16c\	-um	16gg\	.	.	.	.
*	*v	*v	*	*	*	*	*	*	*	*	*	*	*	*
!	!	!	!LO:LB:g=original	!	!	!	!	!	!	!	!	!	!
=6	=6	=6	=6	=6	=6	=6	=6	=6	=6	=6	=6	=6	=6
!LO:TX:a:t=problem:mixed beam	!	!	!	!	!	!	!	!	!	!	!	!	!LO:TN:vis=2.
8F\L	16ff\LL	.	16aa\LL	.	4B-\	om-	4B-\	om-	4ff\	Om-	4f\	4a\	2fff\
.	16aa\	.	16ccc\	.	.	.	.	.	.	.	.	.	.
8A\	16ff\	.	16aa\	.	.	.	.	.	.	.	.	.	.
.	16a\JJ	.	16ff\JJ	.	.	.	.	.	.	.	.	.	.
8B-\	8cc\L	.	(8aa\L	.	4c\	-ni-	4c\	-ni-	4gg\	.	4g\	4b-\	.
8G\	8b-\	.	8gg\)	.	.	.	.	.	.	.	.	.	.
8c\	8a\	.	(8ff\	.	4C/	.	4C/	.	4ee\	-ni-	4c/	4g\	4eee\
8C/J	8g\J	.	8ee\J)	.	.	.	.	.	.	.	.	.	.
!LO:LB:g=original	!	!	!	!	!	!	!	!	!	!	!	!	!
=7	=7	=7	=7	=7	=7	=7	=7	=7	=7	=7	=7	=7	=7
*	*^	*	*	*	*	*	*	*	*	*	*	*	*
*	*Xtremolo	*tremolo	*	*	*	*	*	*	*	*	*	*	*	*
*	*	*	*	*	*	*	*	*	*	*	*	*	*	*
8F\L	16a/LL	16f\LL	.	8ff\L	.	4F\	-um	4F/	-um	4ff\	-um	8A/L	8f\L	4fff\
.	16a/	16f\	.	.	.	.	.	.	.	.	.	.	.	.
8A\	16a/	16f\	.	(32cc\LL	.	.	.	.	.	.	.	8A/J	8f\J	.
.	.	.	.	32b-\	.	.	.	.	.	.	.	.	.	.
.	16a/JJ	16f\JJ	.	32a\	.	.	.	.	.	.	.	.	.	.
.	.	.	.	32g\JJJ)	.	.	.	.	.	.	.	.	.	.
8c\	4a/	4f\	.	4f/	.	4r	.	4r	.	4r	.	4A/	4f\	4fff\
8A\J	.	.	.	.	.	.	.	.	.	.	.	.	.	.
4F\	4r	4ryy	.	4r	.	4r	.	4r	.	4r	.	4r	4r	4r
*	*Xtremolo	*Xtremolo	*	*	*	*	*	*	*	*	*	*	*	*
=8	=8	=8	=8	=8	=8	=8	=8	=8	=8	=8	=8	=8	=8	=8
*	*tremolo	*tremolo	*	*	*	*	*	*	*	*	*	*2\right	*	*
8F\L	16a/L	16f\L	.	16aa\LL	.	8F\	et	8F/	et	8aa\	et	2.f\	2.a\	2.fff\
.	16a/	16f\	.	16ff\	.	.	.	.	.	.	.	.	.	.
8C\J	16a/	16f\	.	16cc\	.	8A\	in	8A/	in	8aa\	in	.	.	.
.	16a/	16f\	.	16ff\JJ	.	.	.	.	.	.	.	.	.	.
8F\L	16a/	16f\	.	16a\LL	.	4c\	u-	4c\	u-	4aa\	u-	.	.	.
.	16a/	16f\	.	16cc\	.	.	.	.	.	.	.	.	.	.
8C\	16a/	16f\	.	16f\	.	.	.	.	.	.	.	.	.	.
.	16a/	16f\	.	16a\JJ	.	.	.	.	.	.	.	.	.	.
8F\	16a/	16f\	.	16c/LL	.	4f\	-num	4f\	-num	4aa\	-num	.	.	.
.	16a/	16f\	.	16f/	.	.	.	.	.	.	.	.	.	.
8C\J	16a/	16f\	.	16a/	.	.	.	.	.	.	.	.	.	.
.	16a/J	16f\J	.	16cc/JJ	.	.	.	.	.	.	.	.	.	.
=9	=9	=9	=9	=9	=9	=9	=9	=9	=9	=9	=9	=9	=9	=9
*	*	*	*	*tremolo	*	*	*	*	*	*	*	*	*	*
*	*	*	*	*tremolo	*	*	*	*	*	*	*	*	*	*
!LO:TX:a:t=problem:mixed beam	!	!	!	!	!	!	!	!	!	!	!	!	!	!
8F/L	16a/L	16f\L	.	16ccc\LL	.	4.f\	Do-	4.f\	Do-	4.aa\	Do-	2.f\	2.a\	2.fff\
.	16a/	16f\	.	16ccc\	.	.	.	.	.	.	.	.	.	.
8FF/	16a/	16f\	.	16ccc\	.	.	.	.	.	.	.	.	.	.
.	16a/	16f\	.	16ccc\JJ	.	.	.	.	.	.	.	.	.	.
8AA/	16a/	16f\	.	16aa\LL	.	.	.	.	.	.	.	.	.	.
.	16a/	16f\	.	16aa\	.	.	.	.	.	.	.	.	.	.
8C/J	16a/	16f\	.	16aa\	.	8F\	-mi-	8F/	-mi-	8aa\	-mi-	.	.	.
.	16a/	16f\	.	16aa\JJ	.	.	.	.	.	.	.	.	.	.
!LO:TX:a:t=problem:mixed beam	!	!	!	!	!	!	!	!	!	!	!	!	!	!
8F\L	16a/	16f\	.	16ff\LL	.	4F\	-num	4F/	-num	8aa\	-num	.	.	.
.	16a/	16f\	.	16ff\	.	.	.	.	.	.	.	.	.	.
!	!	!	!	!	!	!	!	!	!	!LO:TX:a:t=problem:brak  jednej 8	!	!	!	!
8FF/J	16a/	16f\	.	16ff\	.	.	.	.	.	8ryy	.	.	.	.
.	16a/J	16f\J	.	16ff\JJ	.	.	.	.	.	.	.	.	.	.
*	*v	*v	*	*	*	*	*	*	*	*	*	*	*	*
!	!LO:LB:g=original	!	!	!	!LO:LB:g=original	!	!	!	!	!	!	!	!
=10	=10	=10	=10	=10	=10	=10	=10	=10	=10	=10	=10	=10	=10
*	*	*	*	*	*	*	*	*	*2\right	*	*	*	*
8E\L	16c/L 16g	.	16gg\LL	.	8C\	Je-	8C/	Je-	2gg\	Je-	2.c/	2.g\	2.eee\
.	16c/ 16g	.	16ee\	.	.	.	.	.	.	.	.	.	.
8C\	16c/ 16g	.	16cc\	.	8E\	-sum	8E/	-sum	.	.	.	.	.
.	16c/ 16g	.	16ee\JJ	.	.	.	.	.	.	.	.	.	.
8E\	16c/ 16g	.	16g/LL	.	4G\	{Je-	4G/	{Je-	.	.	.	.	.
.	16c/ 16g	.	16cc/	.	.	.	.	.	.	.	.	.	.
8C\	16c/ 16g	.	16e/	.	.	.	.	.	.	.	.	.	.
.	16c/ 16g	.	16g/JJ	.	.	.	.	.	.	.	.	.	.
8E\	16c/ 16g	.	16c/LL	.	4c\	-sum}	4c/	-sum}	4gg\	-sum	.	.	.
.	16c/ 16g	.	16e/	.	.	.	.	.	.	.	.	.	.
8C\J	16c/ 16g	.	16g/	.	.	.	.	.	.	.	.	.	.
.	16c/J 16g	.	16cc/JJ	.	.	.	.	.	.	.	.	.	.
=11	=11	=11	=11	=11	=11	=11	=11	=11	=11	=11	=11	=11	=11
*	*	*	*	*	*2\right	*	*2\right	*	*	*	*	*	*
!LO:TX:a:t=problem:mixed beam	!	!	!	!	!	!	!	!	!	!	!	!	!
8E\L	16c/L 16g	.	16ccc\LL	.	2e\	Chri-	2e\	Chri-	2gg\	Chri-	2.c/	2.g\	2.eee\
.	16c/ 16g	.	16ccc\	.	.	.	.	.	.	.	.	.	.
8C\	16c/ 16g	.	16ccc\	.	.	.	.	.	.	.	.	.	.
.	16c/ 16g	.	16ccc\JJ	.	.	.	.	.	.	.	.	.	.
8E\	16c/ 16g	.	16gg\LL	.	.	.	.	.	.	.	.	.	.
.	16c/ 16g	.	16gg\	.	.	.	.	.	.	.	.	.	.
8G\	16c/ 16g	.	16gg\	.	.	.	.	.	.	.	.	.	.
.	16c/ 16g	.	16gg\JJ	.	.	.	.	.	.	.	.	.	.
8c\	16c/ 16g	.	16ee\LL	.	4c\	-stum	4c\	-stum	4gg\	-stum	.	.	.
.	16c/ 16g	.	16ee\	.	.	.	.	.	.	.	.	.	.
8C/J	16c/ 16g	.	16ee\	.	.	.	.	.	.	.	.	.	.
.	16c/J 16g	.	16ee\JJ	.	.	.	.	.	.	.	.	.	.
!	!	!	!	!	!	!	!	!	!	!	!LO:LB:g=original	!LO:LB:g=original	!
*	*	*	*Xtremolo	*	*	*	*	*	*	*	*	*	*
=12	=12	=12	=12	=12	=12	=12	=12	=12	=12	=12	=12	=12	=12
!	!	!	!LO:TX:a:t=problem:mixed beam	!	!	!	!	!	!	!	!	!	!
8G\L	16d/L 16bn	.	8ff\L	.	4Bn\	fi-	4Bn\	fi-	4ff\	.	4c/	4a\	2.ddd\
.	16d/ 16bn	.	.	.	.	.	.	.	.	.	.	.	.
8Bn/	16d/ 16bn	.	(32g/LL	.	.	.	.	.	.	.	.	.	.
.	.	.	32f#X/	.	.	.	.	.	.	.	.	.	.
.	16d/ 16bn	.	32g/	.	.	.	.	.	.	.	.	.	.
.	.	.	32a/JJJ)	.	.	.	.	.	.	.	.	.	.
!	!	!	!LO:TX:a:t=problem:mixed beam	!	!	!	!	!	!	!	!	!	!
8d\	16d/ 16bn	.	8g/L	.	4B\	-li-	4B\	-li-	4ff\	fi-	4r	4r	.
.	16d/ 16bn	.	.	.	.	.	.	.	.	.	.	.	.
8B\	16d/ 16bn	.	8bbn\J	.	.	.	.	.	.	.	.	.	.
.	16d/ 16bn	.	.	.	.	.	.	.	.	.	.	.	.
8G\	16d/ 16bn	.	16ddd\LL	.	4B\	-um	4B\	-um	4ff\	-lium	4g\	4bX\	.
.	16d/ 16bn	.	16bb\	.	.	.	.	.	.	.	.	.	.
8B/J	16d/ 16bn	.	16gg\	.	.	.	.	.	.	.	.	.	.
.	16d/J 16bn	.	16ff\JJ	.	.	.	.	.	.	.	.	.	.
!	!	!	!LO:LB:g=original	!	!	!	!LO:LB:g=original	!	!LO:LB:g=original	!	!	!	!LO:LB:g=original
=13	=13	=13	=13	=13	=13	=13	=13	=13	=13	=13	=13	=13	=13
!LO:TX:a:t=problem:mixed beam	!	!	!LO:TX:a:t=problem:mixed beam	!	!	!	!	!	!	!	!	!	!
8c\L	16e/L 16cc	.	8ee\L	.	8c\	De-	8c\	De-	8ee\	De-	4g\	4cc\	2.eee\
.	16e/ 16cc	.	.	.	.	.	.	.	.	.	.	.	.
8C/J	16e/ 16cc	.	(32c/LL	.	8G\	-i	8G/	-i	8ee\	-i	.	.	.
.	.	.	32Bn/	.	.	.	.	.	.	.	.	.	.
.	16e/ 16cc	.	32c/	.	.	.	.	.	.	.	.	.	.
.	.	.	32d/JJJ)	.	.	.	.	.	.	.	.	.	.
!LO:TX:a:t=problem:mixed beam	!	!	!LO:TX:a:t=problem:mixed beam	!	!	!	!	!	!	!	!	!	!
8E\L	16e/ 16cc	.	8c/L	.	8E\	uni	8E/	uni	8ee\	U-	4r	4r	.
.	16e/ 16cc	.	.	.	.	.	.	.	.	.	.	.	.
8G\	16e/ 16cc	.	8gg\J	.	8C\	.	8C/	.	8ee\	-ni	.	.	.
.	16e/ 16cc	.	.	.	.	.	.	.	.	.	.	.	.
8c\	16e/ 16cc	.	16ccc\LL	.	16G\	ge-	16G/	ge-	8ee\	ge-	4g\	4cc\	.
.	16e/ 16cc	.	16gg\	.	16G\	-ni-	16G/	-ni-	.	.	.	.	.
8C/J	16e/ 16cc	.	16ff\	.	8G\	-tum	8G/	-tum	16ee\	-ni-	.	.	.
.	16e/J 16cc	.	16ee\JJ	.	.	.	.	.	16ee\	-tum	.	.	.
*	*Xtremolo	*	*	*	*	*	*	*	*	*	*	*	*
!LO:LB:g=original	!	!	!	!	!	!	!	!	!	!	!	!	!
=14	=14	=14	=14	=14	=14	=14	=14	=14	=14	=14	=14	=14	=14
8G\L	16bn\LL	.	16dd\LL	.	8G\	et	8G/	et	8dd\	et	4c/	4g\	8ddd\L
.	16b\	.	16dd\	.	.	.	.	.	.	.	.	.	.
8G\	16cc\	.	16ee\	.	8c\	ex	8c\	ex	8ee\	ex	.	.	8eee\J
.	16cc\JJ	.	16ee\JJ	.	.	.	.	.	.	.	.	.	.
8G\	16dd\LL	.	16ff\LL	.	4d\	Pa-	4d\	Pa-	8ff\	Pa-	4r	4r	4fff\
.	16dd\	.	16ff\	.	.	.	.	.	.	.	.	.	.
8G\	16cc\	.	16ee\	.	.	.	.	.	4ee\	-tre	.	.	.
.	16cc\JJ	.	16ee\JJ	.	.	.	.	.	.	.	.	.	.
8G\	16ee\LL	.	16gg\LL	.	4c\	-tre	4c\	-tre	.	.	4c/	4g\	4eee\
.	16ee\	.	16gg\	.	.	.	.	.	.	.	.	.	.
8G\J	16cc\	.	16ee\	.	.	.	.	.	8ryy	.	.	.	.
.	16cc\JJ	.	16ee\JJ	.	.	.	.	.	.	.	.	.	.
*Xtremolo	*	*	*	*	*	*	*	*	*	*	*	*	*
=15	=15	=15	=15	=15	=15	=15	=15	=15	=15	=15	=15	=15	=15
4G\	16dd\LL	.	16ff\LL	.	4c\	na-	4c\	na-	4ee\	na-	4c/	4g\	4eee\
.	16cc\	.	16ee\	.	.	.	.	.	.	.	.	.	.
.	16bn\	.	16dd\	.	.	.	.	.	.	.	.	.	.
.	16cc\JJ	.	16ee\JJ	.	.	.	.	.	.	.	.	.	.
4GG/	4b\	.	4dd\	.	4G\	-tum	4G/	-tum	4dd\	-tum	4c/	4g\	4ddd\
4r	4r	.	4r	.	4r	.	4r	.	4r	.	4r	4r	4r
=16	=16	=16	=16	=16	=16	=16	=16	=16	=16	=16	=16	=16	=16
*	*tremolo	*	*	*	*	*	*	*	*	*	*	*	*
8G\L	16d/ 16bnLL	.	16ff\LL	.	8Bn\	an-	8Bn\	an-	8dd\	an_te	2.g\	2.bX\	2.fff\
.	16d/ 16bn	.	16gg\	.	.	.	.	.	.	.	.	.	.
8Bn\	16d/ 16bn	.	16aa\	.	8B\	-te	8B\	-te	8dd\	om-	.	.	.
.	16d/ 16bnJJ	.	16ff\JJ	.	.	.	.	.	.	.	.	.	.
8G\	16d/ 16bLL	.	16dd\LL	.	8B\	om-	8B\	om-	8dd\	-ni-	.	.	.
.	16d/ 16b	.	16ee\	.	.	.	.	.	.	.	.	.	.
8B\	16d/ 16b	.	16ff\	.	16B\	-ni-	16B\	-ni-	16dd\	-a	.	.	.
.	16d/ 16b	.	16dd\JJ	.	16B\	-a	16B\	-a	16dd\	sae-	.	.	.
!	!	!	!LO:TX:a:t=sic!:s=16b	!	!LO:LB:g=original	!	!	!	!	!	!	!	!
!	!	!	!LO:TX:a:t=problem:mixed beam	!	!	!	!	!	!	!	!	!	!
8G\	16d/ 16b	.	16b-\LL	.	8B\	sae-	8B\	sae-	16dd\	-cu-	.	.	.
.	16d/ 16b	.	16cc\	.	.	.	.	.	16dd\	-la	.	.	.
8B\J	16d/ 16b	.	16dd\	.	16B\	-cu-	16B\	-cu-	8dd\	.	.	.	.
.	16d/ 16bJJ	.	16f/JJ	.	16B\	-la	16B\	-la	.	.	.	.	.
=17	=17	=17	=17	=17	=17	=17	=17	=17	=17	=17	=17	=17	=17
*tremolo	*	*	*	*	*	*	*	*	*	*	*	*	*
8G\L	16e/L 16cc	.	16e\LL	.	8c\	De-	8c\	De-	8ee\	De-	2.g\	2.cc\	2.eee\
.	16e/ 16cc	.	16cc\	.	.	.	.	.	.	.	.	.	.
8c\	16e/ 16cc	.	16dd\	.	16c\	-um	16c\	-um	16ee\	-um	.	.	.
.	16e/ 16cc	.	16ee\JJ	.	16c\	de	16c\	de	16ee\	de	.	.	.
8G\	16e/ 16cc	.	16ff\LL	.	8c\	De-	8c\	De-	8ee\	Deo	.	.	.
.	16e/ 16cc	.	16gg\	.	.	.	.	.	.	.	.	.	.
8c\	16e/ 16cc	.	16aa\	.	8c\	-o	8c\	-o	8ee\	lu-	.	.	.
.	16e/ 16cc	.	16bbn\JJ	.	.	.	.	.	.	.	.	.	.
8G\	16e/ 16cc	.	16ccc\LL	.	8c\	lu-	8c\	lu-	8ee\	-men	.	.	.
.	16e/ 16cc	.	16gg\	.	.	.	.	.	.	.	.	.	.
!	!	!	!	!	!	!	!	!	!LO:LB:g=original	!	!	!	!
8c\J	16e/ 16cc	.	16ff\	.	16c\	-men	16c\	-men	16ee\	.	.	.	.
.	16e/J 16cc	.	16ee\JJ	.	16c\	de	16c\	de	16ee\	de	.	.	.
!	!	!	!	!	!	!	!LO:LB:g=original	!	!	!	!	!	!
=18	=18	=18	=18	=18	=18	=18	=18	=18	=18	=18	=18	=18	=18
8G\L	16d/L 16bn	.	16ff\LL	.	16Bn\	lumi-	16Bn\	lumi-	16dd\	lu-	2.g\	2.bX\	2.fff\
.	16d/ 16bn	.	16gg\	.	16B\	-ne	16B\	-ne	16dd\	-mi-	.	.	.
8Bn\	16d/ 16bn	.	16aa\	.	8B\	De-	8B\	De-	8dd\	-ne	.	.	.
.	16d/ 16bn	.	16ff\JJ	.	.	.	.	.	.	.	.	.	.
8G\	16d/ 16bn	.	16dd\LL	.	8B\	-um	8B\	-um	8dd\	De-	.	.	.
.	16d/ 16bn	.	16ee\	.	.	.	.	.	.	.	.	.	.
8Bn\	16d/ 16bn	.	16ff\	.	16B\	ve-	16B\	ve-	8dd\	-um	.	.	.
.	16d/ 16bn	.	16dd\JJ	.	16B\	-rm	16B\	-rm	.	.	.	.	.
!	!	!	!LO:TX:a:t=problem:mixed beam	!	!	!	!	!	!	!	!	!	!
8G\	16d/ 16bn	.	16bn\LL	.	8B\	.	8B\	.	8dd\	ve-	.	.	.
.	16d/ 16bn	.	16cc\	.	.	.	.	.	.	.	.	.	.
8Bn\J	16d/ 16bn	.	16dd\	.	8B\	de	8B\	de	16dd\	-rum	.	.	.
.	16d/J 16bn	.	16f/JJ	.	.	.	.	.	16dd\	de	.	.	.
!	!	!	!LO:LB:g=original	!	!	!	!	!	!	!	!	!	!
=19	=19	=19	=19	=19	=19	=19	=19	=19	=19	=19	=19	=19	=19
8G\L	16e/L 16cc	.	16e\LL	.	8c\	De-	8c\	De-	8ee\	De-	2.g\	2.cc\	2.eee\
.	16e/ 16cc	.	16cc\	.	.	.	.	.	.	.	.	.	.
8c\	16e/ 16cc	.	16dd\	.	8c\	-o	8c\	-o	8ee\	-o	.	.	.
.	16e/ 16cc	.	16ee\JJ	.	.	.	.	.	.	.	.	.	.
8G\	16e/ 16cc	.	16ff\LL	.	8c\	ve-	8c\	ve-	8ee\	ve-	.	.	.
.	16e/ 16cc	.	16gg\	.	.	.	.	.	.	.	.	.	.
8c\	16e/ 16cc	.	16aa\	.	8c\	-ro	8c\	-ro	8ee\	-ro	.	.	.
.	16e/ 16cc	.	16bbn\JJ	.	.	.	.	.	.	.	.	.	.
8G\	16e/ 16cc	.	16ccc\LL	.	8c\	ge-	8c\	ge-	8ee\	ge-	.	.	.
.	16e/ 16cc	.	16gg\	.	.	.	.	.	.	.	.	.	.
8c\J	16e/ 16cc	.	16ff\	.	8c\	-ni-	8c\	-ni-	8ee\	-ni-	.	.	.
.	16e/J 16cc	.	16ee\JJ	.	.	.	.	.	.	.	.	.	.
*	*Xtremolo	*	*	*	*	*	*	*	*	*	*	*	*
=20	=20	=20	=20	=20	=20	=20	=20	=20	=20	=20	=20	=20	=20
!LO:TX:a:t=problem:mixed beam	!	!	!	!	!	!	!	!	!	!	!	!	!
8A\L	16ff\LL	.	16aa\LL	.	8F\	-tum	8F/	-tum	8ff\	-tum	4g\	4g\	4fff\
.	16dd\	.	16ff\	.	.	.	.	.	.	.	.	.	.
8F\	16cc\	.	16ee\	.	8F\	non	8F/	non	8ff\	.	.	.	.
.	16bn\JJ	.	16dd\JJ	.	.	.	.	.	.	.	.	.	.
!	!LO:LB:g=original	!	!	!	!	!	!	!	!	!	!	!	!
8G\	16ee\LL	.	16gg\LL	.	(4G\	.	4G/	.	4ee\	non	4r	4r	4eee\
.	16cc\	.	16ee\	.	.	.	.	.	.	.	.	.	.
8F\	16f\	.	16dd\	.	.	.	.	.	.	.	.	.	.
.	16e\JJ	.	16cc\JJ	.	.	.	.	.	.	.	.	.	.
8G\	16a/LL	.	16ff\LL	.	4GG/)	fac-	4GG/	fac-	4dd\	fac-	4g\	4bX\	4ddd\
.	16f/	.	16dd\	.	.	.	.	.	.	.	.	.	.
8GG/J	16e/	.	16cc\	.	.	.	.	.	.	.	.	.	.
!	!	!	!LO:TX:a:t=sic!:s=16b	!	!LO:LB:g=original	!	!	!	!	!	!	!	!
.	16d/JJ	.	16b-\JJ	.	.	.	.	.	.	.	.	.	.
=21	=21	=21	=21	=21	=21	=21	=21	=21	=21	=21	=21	=21	=21
8C\L	8G/L 8e	.	8cc/L	.	4C/	-tum	4C/	-tum	4ee\	-tum	4g\	4cc\	4ccc\
32G\LL	8G/J 8e	.	(32g/LL	.	.	.	.	.	.	.	.	.	.
32F\	.	.	32f/	.	.	.	.	.	.	.	.	.	.
32E\	.	.	32e/	.	.	.	.	.	.	.	.	.	.
32D\JJJ	.	.	32d/JJJ)	.	.	.	.	.	.	.	.	.	.
4C/	4G/ 4e	.	4c/	.	4r	.	4r	.	4r	.	4g\	4cc\	4ccc\
4r	4r	.	4r	.	4r	.	4r	.	4r	.	4r	4r	4r
!LO:LB:g=original	!	!	!	!	!	!	!	!	!	!	!	!	!
=22	=22	=22	=22	=22	=22	=22	=22	=22	=22	=22	=22	=22	=22
*	*tremolo	*	*tremolo	*	*	*	*	*	*	*	*	*	*
!LO:N:vis=00	!	!LO:DY:t=p:	!	!LO:DY:t=p.	!	!	!	!	!	!	!LO:N:vis=00	!LO:N:vis=00	!LO:TX:a:t=solo
0.r	8c/L	p	8c/L	p	4.e\	ge-	4.e\	ge-	4.gg\	ge-	0.r	0.r	4gg\
.	8c/	.	8c/	.	.	.	.	.	.	.	.	.	.
.	8c/	.	8c/	.	.	.	.	.	.	.	.	.	8ff\
.	8c/	.	8c/	.	8d\	-ni-	8d\	-ni-	8ff\	-ni-	.	.	8ee\
!	!	!	!	!	!	!	!	!	!	!	!	!	!LO:TX:a:t=problem:brak  4
.	8c/	.	8c/	.	4c\	-tum	4c\	-tum	4ee\	-tum	.	.	4ryy
.	8c/J	.	8c/J	.	.	.	.	.	.	.	.	.	.
!	!	!	!	!	!	!	!LO:LB:g=original	!	!	!	!	!	!
=23	=23	=23	=23	=23	=23	=23	=23	=23	=23	=23	=23	=23	=23
.	8G/L	.	8G/L	.	8F\L	non	8F/L	non	8dd\L	non	.	.	8dd\L
.	.	.	.	.	.	.	.	.	.	.	.	.	.
.	8G/	.	8G/	.	8c\J	.	8c/J	.	8ee\J	.	.	.	8ee\J
.	.	.	.	.	.	.	.	.	.	.	.	.	.
.	8G/	.	8G/	.	4e\	fac-	4e\	fac-	4gg\	fa-	.	.	4gg\
.	.	.	.	.	.	.	.	.	.	.	.	.	.
.	8G/	.	8G/	.	.	.	.	.	.	.	.	.	.
.	.	.	.	.	.	.	.	.	.	.	.	.	.
.	8G/	.	8G/	.	4d\	.	4d\	.	4ff\	.	.	.	4ff\
.	.	.	.	.	.	.	.	.	.	.	.	.	.
.	8G/J	.	8G/J	.	.	.	.	.	.	.	.	.	.
.	.	.	.	.	.	.	.	.	.	.	.	.	.
!	!	!	!	!	!	!	!	!	!LO:LB:g=original	!	!	!	!
*	*Xtremolo	*	*Xtremolo	*	*	*	*	*	*	*	*	*	*
=24	=24	=24	=24	=24	=24	=24	=24	=24	=24	=24	=24	=24	=24
!	!LO:TX:a:t=problem:mixed beam	!	!LO:TX:a:t=problem:mixed beam	!	!	!	!	!	!	!	!	!	!
.	8c/L	.	8c/L	.	4c\	-tum	4c\	-tum	4ee\	-ctum	.	.	4ee\
.	8cc\	.	8cc\	.	.	.	.	.	.	.	.	.	.
.	8g\	.	8g\	.	4r	.	4r	.	4r	.	.	.	4r
.	8e\J	.	8e\J	.	.	.	.	.	.	.	.	.	.
.	4c/	.	4c/	.	4r	.	4r	.	4r	.	.	.	4r
!	!	!	!	!	!	!	!	!	!	!	!	!	!LO:LB:g=original
=25	=25	=25	=25	=25	=25	=25	=25	=25	=25	=25	=25	=25	=25
.	4c/	.	4c/	.	8c\	con-	8c\	Con-	8ee\	cum	.	.	8ee\L
.	.	.	.	.	8c\	-sub-	8c\	-sub-	8ee\	.	.	.	8ee\
.	4e/	.	4e/	.	8c\	-stan-	8c\	-stan-	8ee\	sub-	.	.	8ee\
.	.	.	.	.	8d\	-ti-	8d\	-ti-	8ff\	-stan-	.	.	8ff\
.	4c/	.	4c/	.	8e\	-a-	8e\	-a-	8gg\	-ti-	.	.	8gg\
.	.	.	.	.	8c\	-lem	8c\	-lem	8ee\	-alem	.	.	8ee\J
=26	=26	=26	=26	=26	=26	=26	=26	=26	=26	=26	=26	=26	=26
!LO:N:vis=00	!	!	!	!	!	!	!	!	!	!	!LO:N:vis=00	!LO:N:vis=00	!
0.r	4g/	.	4g/	.	8c\L	Pa-	8c\L	Pa-	8ee\	Pa-	0.r	0.r	8ee\L
.	.	.	.	.	8Bn\J	-tri	8Bn\J	-tri,	8dd\	.	.	.	8dd\J
.	4d/	.	4d/	.	2B\	.	2B\	.	2dd\	-tri	.	.	2dd\
.	4G/	.	4G/	.	.	.	.	.	.	.	.	.	.
=27	=27	=27	=27	=27	=27	=27	=27	=27	=27	=27	=27	=27	=27
.	4d/	.	4d/	.	2d\	per	2d\	per	2ff\	per	.	.	2ff\
.	4Bn/	.	4Bn/	.	.	.	.	.	.	.	.	.	.
.	4G/	.	4G/	.	8f\L	quem	8f\L	quem	8aa\L	quem	.	.	8aa\L
.	.	.	.	.	8d\J	.	8d\J	.	8ff\J	.	.	.	8ff\J
=28	=28	=28	=28	=28	=28	=28	=28	=28	=28	=28	=28	=28	=28
.	4c/	.	4c/	.	8d\L	om-	8d\L	om-	8ff\	Om-	.	.	8ff\L
.	.	.	.	.	8c\J	.	8c\J	.	8ee\	-ni-	.	.	8ee\J
.	4cc\	.	4cc\	.	2c\	-nia	2c\	-nia	2ee\	-a	.	.	4ee\
.	4c/	.	4c/	.	.	.	.	.	.	.	.	.	4ee\
!	!	!	!	!	!LO:LB:g=original	!	!	!	!	!	!	!	!
=29	=29	=29	=29	=29	=29	=29	=29	=29	=29	=29	=29	=29	=29
.	4c/	.	4c/	.	2e\	per	2e\	per	2gg\	per	.	.	2gg\
!	!LO:TX:b:t=e	!	!	!	!	!	!	!	!	!	!	!	!
.	4e/	.	4e/	.	.	.	.	.	.	.	.	.	.
!	!	!	!LO:TX:a:t=vi	!	!	!	!	!	!	!	!	!	!
.	4c/	.	4c/	.	8f\L	quem	8f\L	quem	8aa\L	quem	.	.	8aa\L
.	.	.	.	.	8e\J	.	8e\J	.	8gg\J	.	.	.	8gg\J
=30	=30	=30	=30	=30	=30	=30	=30	=30	=30	=30	=30	=30	=30
!LO:N:vis=00	!	!	!LO:TX:a:t=problem:brak taktu	!	!	!	!	!	!	!	!LO:N:vis=0	!LO:N:vis=0	!
1.r	4g/	.	2.ryy	.	4.e\	om-	4.e\	om-	4.gg\	om-	1.r	1.r	4.gg\
.	4e/	.	.	.	.	.	.	.	.	.	.	.	.
.	.	.	.	.	8d\	.	8d\	.	8ff\	-ni-	.	.	8ff\
.	4a/	.	.	.	4c\	-nia	4c\	-nia	4ee\	-a	.	.	4ee\
!	!	!	!LO:LB:g=original	!	!	!	!LO:LB:g=original	!	!	!	!	!	!
=31	=31	=31	=31	=31	=31	=31	=31	=31	=31	=31	=31	=31	=31
!	!	!	!LO:TX:a:t=de (str.13)	!	!	!	!	!	!	!	!	!	!
.	4f/	.	4f/	.	4d\	.	4d\	.	8gg\L	fac-	.	.	8gg\L
.	.	.	.	.	.	.	.	.	8ff\J	.	.	.	8ff\J
.	4g/	.	4g/	.	4c\	fac-	4c\	fac-	4ee\	.	.	.	4ee\
.	4G/	.	4G/	.	4G\	-ta	4G/	-ta	4dd\	-ta	.	.	4dd\
!	!LO:LB:g=original	!	!	!	!	!	!	!	!	!	!	!	!
=32	=32	=32	=32	=32	=32	=32	=32	=32	=32	=32	=32	=32	=32
2.r	4c/	.	4c/	.	4c\	sunt	4c\	sunt	4cc\	sunt	2.r	2.r	4cc\
.	4c/	.	4r	.	4r	.	4r	.	4r	.	.	.	4r
.	4r	.	4r	.	4r	.	4r	.	4r	.	.	.	4r
!	!	!	!	!	!	!	!	!	!LO:LB:g=original	!	!	!LO:LB:g=original	!
=33	=33	=33	=33	=33	=33	=33	=33	=33	=33	=33	=33	=33	=33
*	*tremolo	*	*	*	*	*	*	*	*	*	*	*	*
!	!	!	!LO:TX:a:t=problem:mixed beam	!	!	!	!	!	!	!	!	!	!
8G\L	16d/L 16bn	.	8ff\L	.	4Bn\	Qui	4Bn\	Qui	4dd\	qui	2.g\	2.bX\	2.ddd\
.	16d/ 16bn	.	.	.	.	.	.	.	.	.	.	.	.
8Bn\	16d/ 16bn	.	(32g/LL	.	.	.	.	.	.	.	.	.	.
.	.	.	32f#X/	.	.	.	.	.	.	.	.	.	.
.	16d/ 16bn	.	32g/	.	.	.	.	.	.	.	.	.	.
.	.	.	32a/JJJ)	.	.	.	.	.	.	.	.	.	.
!	!	!	!LO:TX:a:t=problem:mixed beam	!	!	!	!	!	!	!	!	!	!
8G\	16d/ 16bn	.	8g/L	.	4B\	pro-	4B\	pro-	4dd\	prop-	.	.	.
.	16d/ 16bn	.	.	.	.	.	.	.	.	.	.	.	.
8Bn\	16d/ 16bn	.	16ddd\L	.	.	.	.	.	.	.	.	.	.
.	16d/ 16bn	.	16bbn\JJ	.	.	.	.	.	.	.	.	.	.
8G\	16d/ 16bn	.	16gg\LL	.	8B\	-pter	8B\	-pter	8dd\	-ter	.	.	.
.	16d/ 16bn	.	16ff\	.	.	.	.	.	.	.	.	.	.
8Bn\J	16d/ 16bn	.	16ee\	.	8B\	nos	8B\	nos	8dd\	nos	.	.	.
.	16d/J 16bn	.	16ff\JJ	.	.	.	.	.	.	.	.	.	.
=34	=34	=34	=34	=34	=34	=34	=34	=34	=34	=34	=34	=34	=34
8G\L	16e/L 16cc	.	16ee\LL	.	4.c\	ho-	4.c\	ho-	4.ee\	ho-	2.g\	2.cc\	2.eee\
.	16e/ 16cc	.	16gg\	.	.	.	.	.	.	.	.	.	.
8c\	16e/ 16cc	.	16aa\	.	.	.	.	.	.	.	.	.	.
.	16e/ 16cc	.	16bbn\JJ	.	.	.	.	.	.	.	.	.	.
8G\	16e/ 16cc	.	16ccc\LL	.	.	.	.	.	.	.	.	.	.
.	16e/ 16cc	.	16bb\	.	.	.	.	.	.	.	.	.	.
8c\	16e/ 16cc	.	16aa\	.	8c\	-mi-	8c\	-mi-	8ee\	-mi-	.	.	.
.	16e/ 16cc	.	16gg\JJ	.	.	.	.	.	.	.	.	.	.
8G\	16e/ 16cc	.	16ff\LL	.	4c\	-nes	4c\	-nes	4ee\	-nes	.	.	.
.	16e/ 16cc	.	16ee\	.	.	.	.	.	.	.	.	.	.
8c\J	16e/ 16cc	.	16dd\	.	.	.	.	.	.	.	.	.	.
.	16e/J 16cc	.	16cc\JJ	.	.	.	.	.	.	.	.	.	.
!	!	!	!	!	!	!	!	!	!	!	!LO:LB:g=original	!	!
=35	=35	=35	=35	=35	=35	=35	=35	=35	=35	=35	=35	=35	=35
!	!	!	!LO:TX:a:t=problem:repetycja tt. 33-34	!	!	!	!	!	!	!	!	!	!
!	!	!	!LO:TX:a:t=problem:mixed beam	!	!	!	!	!	!	!	!	!	!
8G\L	16d/L 16bn	.	8ff\Lyy	.	4Bn\	et	4Bn\	et	4dd\	et	2.g\	2.bX\	2.ddd\
.	16d/ 16bn	.	.	.	.	.	.	.	.	.	.	.	.
8Bn\	16d/ 16bn	.	(32g/LLyy	.	.	.	.	.	.	.	.	.	.
.	.	.	32f#X/yy	.	.	.	.	.	.	.	.	.	.
.	16d/ 16bn	.	32g/yy	.	.	.	.	.	.	.	.	.	.
.	.	.	32a/JJJ)yy	.	.	.	.	.	.	.	.	.	.
!	!	!	!LO:TX:a:t=problem:mixed beam	!	!	!	!	!	!	!	!	!	!
8G\	16d/ 16bn	.	8g/Lyy	.	4B\	prop-	4B\	prop-	4dd\	pro-	.	.	.
.	16d/ 16bn	.	.	.	.	.	.	.	.	.	.	.	.
8Bn\	16d/ 16bn	.	16ddd\Lyy	.	.	.	.	.	.	.	.	.	.
.	16d/ 16bn	.	16bbn\JJyy	.	.	.	.	.	.	.	.	.	.
8G\	16d/ 16bn	.	16gg\LLyy	.	4B\	-ter	4B\	-ter	4dd\	-pter	.	.	.
.	16d/ 16bn	.	16ff\yy	.	.	.	.	.	.	.	.	.	.
8Bn\J	16d/ 16bn	.	16ee\yy	.	.	.	.	.	.	.	.	.	.
.	16d/J 16bn	.	16ff\JJyy	.	.	.	.	.	.	.	.	.	.
=36	=36	=36	=36	=36	=36	=36	=36	=36	=36	=36	=36	=36	=36
8G\L	16e/L 16cc	.	16ee\LLyy	.	4c\	nos-	4c\	nos-	4ee\	nos-	2.g\	2.cc\	2.eee\
.	16e/ 16cc	.	16gg\yy	.	.	.	.	.	.	.	.	.	.
8c\	16e/ 16cc	.	16aa\yy	.	.	.	.	.	.	.	.	.	.
.	16e/ 16cc	.	16bbn\JJyy	.	.	.	.	.	.	.	.	.	.
8G\	16e/ 16cc	.	16ccc\LLyy	.	4c\	-tram	4c\	-tram	4ee\	-tram	.	.	.
.	16e/ 16cc	.	16bb\yy	.	.	.	.	.	.	.	.	.	.
8c\	16e/ 16cc	.	16aa\yy	.	.	.	.	.	.	.	.	.	.
.	16e/ 16cc	.	16gg\JJyy	.	.	.	.	.	.	.	.	.	.
8G\	16e/ 16cc	.	16ff\LLyy	.	4c\	sa-	4c\	sa-	4ee\	sa-	.	.	.
.	16e/ 16cc	.	16ee\yy	.	.	.	.	.	.	.	.	.	.
8c\J	16e/ 16cc	.	16dd\yy	.	.	.	.	.	.	.	.	.	.
.	16e/J 16cc	.	16cc\JJyy	.	.	.	.	.	.	.	.	.	.
!	!	!	!	!	!	!	!	!	!	!	!	!	!LO:LB:g=original
=37	=37	=37	=37	=37	=37	=37	=37	=37	=37	=37	=37	=37	=37
!	!	!	!LO:TX:a:t=problem:mixed beam	!	!	!	!	!	!	!	!	!	!LO:TX:a:t=sic!:s=2.bb
8G\L	16d/L 16bn	.	8ff\L	.	4Bn\	-lu-	4Bn\	-lu-	4dd\	-lu-	2.g\	2.bX\	2.ccc\
.	16d/ 16bn	.	.	.	.	.	.	.	.	.	.	.	.
8Bn\	16d/ 16bn	.	(32g/LL	.	.	.	.	.	.	.	.	.	.
.	.	.	32f#X/	.	.	.	.	.	.	.	.	.	.
.	16d/ 16bn	.	32g/	.	.	.	.	.	.	.	.	.	.
.	.	.	32a/JJJ)	.	.	.	.	.	.	.	.	.	.
!	!	!	!LO:TX:a:t=problem:strona ucięta, zapis prawdopodobny	!	!	!	!	!	!	!	!	!	!
8G\	16d/ 16bn	.	8g\Lyy	.	8B\	-tem	8B\	-tem	8dd\	-tem	.	.	.
.	16d/ 16bn	.	.	.	.	.	.	.	.	.	.	.	.
8Bn\	16d/ 16bn	.	16ddd\Lyy	.	8B\	de-	8B\	de-	8dd\	de-	.	.	.
.	16d/ 16bn	.	16bbny\JJ	.	.	.	.	.	.	.	.	.	.
8G\	16d/ 16bn	.	16aa\LL	.	8B\	-scen-	8B\	-scen-	8dd\	-scen-	.	.	.
.	16d/ 16bn	.	16gg\	.	.	.	.	.	.	.	.	.	.
8Bn\J	16d/ 16bn	.	16ff\	.	8B\	-dit	8B\	-dit	16dd\	-dit	.	.	.
.	16d/J 16bn	.	16dd\JJ	.	.	.	.	.	16dd\	.	.	.	.
*	*Xtremolo	*	*	*	*	*	*	*	*	*	*	*	*
!	!LO:LB:g=original	!	!	!	!LO:LB:g=original	!	!LO:LB:g=original	!	!	!	!	!	!
=38	=38	=38	=38	=38	=38	=38	=38	=38	=38	=38	=38	=38	=38
8c\L	16cc\LL	.	16ee\LL	.	4A\	de	4A/	de	2cc\	de_Cae-	2.g\	2.cc\	2.ddd\
.	16ee\	.	16gg\	.	.	.	.	.	.	.	.	.	.
8Bn\	16dd\	.	16ff\	.	.	.	.	.	.	.	.	.	.
.	16cc\JJ	.	16ee\JJ	.	.	.	.	.	.	.	.	.	.
8A\	16dd\LL	.	16ff\LL	.	4A\	Cae-	4A/	Cae-	.	.	.	.	.
.	16ee\	.	16gg\	.	.	.	.	.	.	.	.	.	.
8G\	16ff\	.	16aa\	.	.	.	.	.	.	.	.	.	.
.	16gg\JJ	.	16bbn\JJ	.	.	.	.	.	.	.	.	.	.
8F\	16aa\LL	.	16ccc\LL	.	4A\	-lis	4A/	-lis	4cc\	-lis	.	.	.
.	16gg\	.	16bbn\	.	.	.	.	.	.	.	.	.	.
8E\J	16ff\	.	16aa\	.	.	.	.	.	.	.	.	.	.
.	16ee\JJ	.	16gg\JJ	.	.	.	.	.	.	.	.	.	.
*Xtremolo	*	*	*	*	*	*	*	*	*	*	*	*	*
=39	=39	=39	=39	=39	=39	=39	=39	=39	=39	=39	=39	=39	=39
8F\L	16gg\LL	.	16bb-X\LL	.	2G\	cae-	2G/	cae-	4ff\	de	4f\	4a\	4ddd\
.	16ff\	.	16aa\	.	.	.	.	.	.	.	.	.	.
8D\J	16ee\	.	16gg\	.	.	.	.	.	.	.	.	.	.
.	16dd\JJ	.	16ff\JJ	.	.	.	.	.	.	.	.	.	.
4G\	4cc\	.	4ee\	.	.	.	.	.	4ee\	Cae-	4g\	4cc\	4eee\
4GG/	4g\	.	4dd\	.	4GG/	.	4GG/	.	4dd\	.	4g\	4bX\	4ddd\
=40	=40	=40	=40	=40	=40	=40	=40	=40	=40	=40	=40	=40	=40
!LO:TX:a:t=problem:mixed beam	!	!	!	!	!	!	!	!	!	!	!	!	!
8C/L	4G/ 4e	.	4e/ 4cc	.	4C/	-lis	4C/	-lis	4cc\	-lis	4g\	4cc\	4ccc\
8c\	.	.	.	.	.	.	.	.	.	.	.	.	.
8G\	4G/ 4e	.	4e/ 4cc	.	4r	.	4r	.	4r	.	4c/	4cc\	4ccc\
8c\	.	.	.	.	.	.	.	.	.	.	.	.	.
8E\	4G/ 4e	.	4e/ 4cc	.	4c\	Cae-	4c\	Cae-	4cc\	Cae-	4c/	4cc\	4ccc\
8G\J	.	.	.	.	.	.	.	.	.	.	.	.	.
!LO:LB:g=original	!	!	!	!	!	!	!	!	!	!	!	!	!
=41	=41	=41	=41	=41	=41	=41	=41	=41	=41	=41	=41	=41	=41
4C/	4G/ 4e	.	4e/ 4cc	.	4c\	-lis	4c\	-lis	4cc\	-lis	4c/	4cc\	4ccc\
4r	4r	.	4r	.	4r	.	4r	.	4r	.	4r	4r	4r
!	!	!	!LO:TX:a:t=vi	!	!	!	!	!	!	!	!	!	!
4r	4r	.	4r	.	4r	.	4r	.	4r	.	4r	4r	4r
!	!LO:LB:g=original	!	!	!	!	!	!	!	!LO:LB:g=original	!	!	!	!
=42||	=42	=42	=42	=42	=42	=42	=42	=42	=42	=42	=42	=42	=42
*>B	*>B	*	*>B	*	*>B	*	*>B	*	*>B	*	*>B	*>B	*>B
!	!LO:TX:a:t=1.	!	!LO:TX:a:t=de (str. 12)	!	!	!	!	!	!	!	!	!	!
!LO:TX:a:t=Adagio	!LO:TX:a:t=Adagio	!	!LO:TX:a:t=Adagio	!	!LO:TX:a:t=Ada(gio)	!	!LO:TX:a:t=Ada(gio)	!	!LO:TX:a:t=Adagio	!	!LO:TX:a:t=Ada(gio)	!LO:TX:a:t=Ada(gio):	!LO:TX:a:t=Ada(gio):
4F\	2.r	.	2.r	.	4A\	Et	4A/	Et	4ff\	Et	2.r	2.r	4ddd\
4FF/	.	.	.	.	4.A\	in	4.A/	in	4.cc\	in	.	.	4.ccc\
4r	.	.	.	.	.	.	.	.	.	.	.	.	.
.	.	.	.	.	8B-\	Car-	8B-\	Car-	8dd\	Car-	.	.	8ddd\
=43	=43	=43	=43	=43	=43	=43	=43	=43	=43	=43	=43	=43	=43
!	!	!	!	!	!	!	!LO:TX:a:t=problem:skreślona nuta	!	!	!	!	!	!
4C\	4r	.	4r	.	8.A\	-na-	8.A/	-na-	8.cc\	-na-	4r	4r	8.ccc\L
.	.	.	.	.	16G\	-tus	16G/	-tus	16b-\	-tus	.	.	16bb-\Jk
4F\	8r	.	8r	.	4F\	eſt	4F/	est	4a\	eſt	8r	8r	4aa\
!	!LO:TX:a:t=problem:mixed beam	!	!	!	!	!	!	!	!	!	!	!	!
!	!LO:TX:b:t=pizicato	!	!LO:TX:b:t=Pizicato	!	!	!	!	!	!	!	!	!	!
.	8aa\L	.	8ccc\L	.	.	.	.	.	.	.	8a\L	8cc\L	.
4r	8ff\	.	8aa\	.	8r	.	8r	.	8r	.	8g\	8b-\	4r
.	8a/J	.	8ff\J	.	8F\	de	8c\	de	8a\	de	8f\J	8a\J	.
=44	=44	=44	=44	=44	=44	=44	=44	=44	=44	=44	=44	=44	=44
!	!LO:TX:a:t=1.	!	!LO:TX:a:t=1.	!	!	!	!	!	!	!	!LO:TX:a:t=1.	!LO:TX:a:t=1	!
4C\	2.r	.	2.r	.	8E\L	spi-	8E/L	spi-	8g\L	Spi-	2.r	2.r	8gg\L
.	.	.	.	.	8B-X\J	.	8B-X/J	.	8dd\J	.	.	.	8ddd\J
4E\	.	.	.	.	8A\L	-ri-	8A/L	-ri-	8cc\L	-ri-	.	.	8ccc\L
.	.	.	.	.	8G\J	.	8G/J	.	8b-\J	.	.	.	8bb-\
4C\	.	.	.	.	8F\L	-tu	8F/L	-tu	8a\L	-tu	.	.	8aa\
.	.	.	.	.	8E\J	.	8E/J	.	8g\J	.	.	.	8gg\J
!	!	!	!	!	!	!	!	!	!	!	!	!LO:LB:g=original	!
=45	=45	=45	=45	=45	=45	=45	=45	=45	=45	=45	=45	=45	=45
4F\	4r	.	4r	.	8F\L	San-	8F/L	San-	16b-\LL	San-	4r	4r	16bb-\LL
.	.	.	.	.	.	.	.	.	16a\	.	.	.	16aa\
.	.	.	.	.	8C\J	.	8C/J	.	16g\	.	.	.	16gg\
.	.	.	.	.	.	.	.	.	16f\JJ	.	.	.	16ff\JJ
4FF/	8r	.	8r	.	4AA/	-cto	4AA/	-cto	4f\	-cto	8r	8r	4ff\
.	8ff\L	.	8aa\L	.	.	.	.	.	.	.	8f/L	8a\L	.
4r	8aa\	.	8ccc\	.	4r	.	4r	.	4r	.	8c/	8g\	4r
.	8ff\J	.	8aa\J	.	.	.	.	.	.	.	8A/J	8f\J	.
!	!	!	!	!	!	!	!LO:LB:g=original	!	!	!	!	!	!
=46	=46	=46	=46	=46	=46	=46	=46	=46	=46	=46	=46	=46	=46
!	!LO:TX:a:t=1.	!	!LO:TX:a:t=1	!	!	!	!	!	!	!	!LO:N:vis=00	!LO:N:vis=00	!
4F\	2.r	.	2.r	.	4.A\	ex	4.A/	ex	4.cc\	ex	0.r	0.r	4.ccc\
4FF/	.	.	.	.	.	.	.	.	.	.	.	.	.
.	.	.	.	.	8c\	Ma-	8c/	Ma-	8ff\	Ma-	.	.	8aa\L
!	!	!	!	!	!LO:LB:g=original	!	!	!	!	!	!	!	!
4r	.	.	.	.	8f\	-ri-	8f\	-ri-	8aa\	-ri-	.	.	8gg\
.	.	.	.	.	8A\	-a	8A/	-a	8ff\	-a	.	.	8ff\J
=47	=47	=47	=47	=47	=47	=47	=47	=47	=47	=47	=47	=47	=47
4c\	4r	.	4r	.	8d\	Vir-	8d\	Vir-	8ff\	Vir-	.	.	8ff\L
.	.	.	.	.	8c\	-gi-	8c\	-gi-	8ee\	-gi-	.	.	8ee\J
4C/	8r	.	8r	.	4.c\	-ne	4.c\	-ne	4.ee\	-ne	.	.	4.ee\
.	8ff\L	.	8aa\L	.	.	.	.	.	.	.	.	.	.
4r	8gg\	.	8bb-\	.	.	.	.	.	.	.	.	.	.
.	8ee\J	.	8gg\J	.	8e\	et	8e\	et	8bb-\	et	.	.	8bb-\
!	!	!	!	!	!	!	!	!	!LO:LB:g=original	!	!	!	!LO:LB:g=original
=48	=48	=48	=48	=48	=48	=48	=48	=48	=48	=48	=48	=48	=48
!	!LO:TX:a:t=1.	!	!LO:TX:a:t=1	!	!	!	!	!	!	!	!	!	!
4B-\	2.r	.	2.r	.	4.f\	ho-	4.f\	ho-	4.aa\	ho-	.	.	4.aa\
4c\	.	.	.	.	.	.	.	.	.	.	.	.	.
.	.	.	.	.	8d\	-mo	8d\	-mo	16bb-\LL	-mo	.	.	16bb-\LL
.	.	.	.	.	.	.	.	.	16gg\JJ	.	.	.	16gg\JJ
4C/	.	.	.	.	8B-\	fac-	8B-\	fac-	8ff\	fac-	.	.	16gg\LL
.	.	.	.	.	.	.	.	.	.	.	.	.	16ff\
.	.	.	.	.	8c\	-tus	8c\	-tus	8ee\	-tus	.	.	16ff\
.	.	.	.	.	.	.	.	.	.	.	.	.	16ee\JJ
=49	=49	=49	=49	=49	=49	=49	=49	=49	=49	=49	=49	=49	=49
4F\	8r	.	8r	.	4F\	eſt	4F/	est	4ff\	eſt	.	.	4ee\
.	8cc/L	.	8aa\L	.	.	.	.	.	.	.	.	.	.
4r	8b-/	.	8gg\	.	4r	.	4r	.	4r	.	.	.	4ff\
.	8g/J	.	8ee\J	.	.	.	.	.	.	.	.	.	.
4r	4a/	.	4ff\	.	8r	.	8r	.	8r	.	.	.	4r
.	.	.	.	.	8F\	et	8F/	et	8cc\	et	.	.	.
=50	=50	=50	=50	=50	=50	=50	=50	=50	=50	=50	=50	=50	=50
!	!LO:TX:a:t=1.	!	!LO:TX:a:t=1.	!	!	!	!	!	!	!	!LO:N:vis=00	!LO:N:vis=00	!
4F\	2.r	.	2.r	.	4A\	ho-	4A/	ho-	4cc\	ho-	0.r	0.r	4ccc\
4r	.	.	.	.	16F'\LL	.	16F'/LL	.	16a'\LL	.	.	.	4aa\
.	.	.	.	.	16G'\	.	16G'/	.	16b-'\	.	.	.	.
.	.	.	.	.	16A'\	.	16A'/	.	16cc'\	.	.	.	.
.	.	.	.	.	16B-'\JJ	.	16B-'/JJ	.	16dd'\JJ	.	.	.	.
4r	.	.	.	.	16c'\LL	.	16c'\LL	.	16ee'\LL	.	.	.	4r
.	.	.	.	.	16d'\	.	16d'\	.	16ff'\	.	.	.	.
.	.	.	.	.	16e'\	.	16e'\	.	16gg'\	.	.	.	.
.	.	.	.	.	16f'\JJ	.	16f'\JJ	.	16aa'\JJ	.	.	.	.
!	!	!	!LO:LB:g=original	!	!	!	!	!	!	!	!	!	!
=51	=51	=51	=51	=51	=51	=51	=51	=51	=51	=51	=51	=51	=51
4C\	8r	.	8r	.	4.g\	.	4.g\	.	4.bb-\	.	.	.	4.bb-\
.	8ee\L	.	8gg\L	.	.	.	.	.	.	.	.	.	.
4E\	8ff\	.	8aa\	.	.	.	.	.	.	.	.	.	.
.	8gg\J	.	8bb-\J	.	8e\	.	8e\	.	8gg\	.	.	.	8gg\
4F\	4ff\	.	4aa\	.	8f\L	.	8f\L	.	8aa\L	-mo	.	.	8aa\L
.	.	.	.	.	8A\J	.	8A\J	.	8ff\J	.	.	.	8ff\J
!LO:LB:g=original	!	!	!	!	!	!	!	!	!	!	!	!	!
=52	=52	=52	=52	=52	=52	=52	=52	=52	=52	=52	=52	=52	=52
8G\L	8r	.	8r	.	8B-\L	-mo	8B-\L	-mo	8gg\	ho-	.	.	8aa\L
8B-\J	8cc\	.	8aa\	.	8d\J	.	8d\J	.	16bb-\LL	-mo	.	.	16bb-\L
.	.	.	.	.	.	.	.	.	16gg\JJ	.	.	.	16gg\JJ
4c\	8r	.	8r	.	4c\	fac-	4c\	fac-	4ff\	fac-	.	.	4ff\
.	8b-\	.	8ff\	.	.	.	.	.	.	.	.	.	.
4C/	8r	.	8r	.	4C/	-tus	4C/	-tus	4ee\	-tus	.	.	4ee\
.	8a\	.	8ee\	.	.	.	.	.	.	.	.	.	.
!	!LO:LB:g=original	!	!	!	!LO:LB:g=original	!	!LO:LB:g=original	!	!	!	!	!	!
=53	=53	=53	=53	=53	=53	=53	=53	=53	=53	=53	=53	=53	=53
!	!LO:TX:a:t=problem:mixed beam	!	!	!	!	!	!	!	!	!	!	!	!
4F\	8a/L	.	8ff\L	.	4F\	eſt	4F/	est	4ff\	est	.	.	4ff\
.	8aa\	.	8ccc\	.	.	.	.	.	.	.	.	.	.
4r	8bb-\	.	8ddd\	.	4r	.	4r	.	4r	.	.	.	4r
.	8gg\J	.	8bb-\J	.	.	.	.	.	.	.	.	.	.
4r	4ff\	.	4aa\	.	4r	.	4r	.	4r	.	.	.	4r
=54	=54	=54	=54	=54	=54	=54	=54	=54	=54	=54	=54	=54	=54
!	!LO:TX:a:t=1.	!	!LO:TX:a:t=1.	!	!	!	!	!	!	!	!LO:N:vis=00	!LO:N:vis=00	!
4C\	2.r	.	2.r	.	8F\L	Cru-	8F/L	Cru-	8a\L	Cru-	0.r	0.r	8aa\L
.	.	.	.	.	8G\J	.	8G/J	.	8b-\J	.	.	.	8bb-\J
4C\	.	.	.	.	4.A\	-ci-	4.A/	-ci-	4.cc\	-ci-	.	.	4.ccc\
4C\	.	.	.	.	.	.	.	.	.	.	.	.	.
.	.	.	.	.	8B-\	-fi-	8B-/	-fi-	8dd\	-fi-	.	.	8ddd\
=55	=55	=55	=55	=55	=55	=55	=55	=55	=55	=55	=55	=55	=55
4C\	4r	.	4r	.	4c\	.	4c\	.	4ee-X\	.	.	.	4eee-X\
4F\	8r	.	8r	.	4B-\	-xus	4B-\	-xus	4dd\	-xus	.	.	4ddd\
.	8dd\L	.	8ff\L	.	.	.	.	.	.	.	.	.	.
4r	8cc\	.	8ee-X\	.	4r	.	4r	.	4r	.	.	.	4r
.	8b-\J	.	8dd\J	.	.	.	.	.	.	.	.	.	.
!	!	!	!	!	!	!	!	!	!LO:LB:g=original	!	!	!	!
=56	=56	=56	=56	=56	=56	=56	=56	=56	=56	=56	=56	=56	=56
!	!LO:TX:a:t=1.	!	!LO:TX:a:t=1	!	!	!	!	!	!	!	!	!	!
4G\	2.r	.	2.r	.	8G\	e-	8G/	e-	8bn\	e-	.	.	8bbn\L
.	.	.	.	.	8A\	-ti-	8A/	-ti-	8cc\	-ti-	.	.	8ccc\J
4G\	.	.	.	.	4.Bn\	-am	4.Bn\	-am	4.dd\	-am	.	.	4.ddd\
4G\	.	.	.	.	.	.	.	.	.	.	.	.	.
.	.	.	.	.	8c\	pro	8c\	pro	8een\	pro	.	.	8eeen\
!	!	!	!	!	!	!	!	!	!	!	!	!	!LO:LB:g=original
=57	=57	=57	=57	=57	=57	=57	=57	=57	=57	=57	=57	=57	=57
4G\	4r	.	4r	.	4d\	no-	4d\	no-	4ff\	no-	.	.	4fff\
4c\	8r	.	8r	.	4c\	-bis	4c\	-bis	4ee\	-bis	.	.	4eee\
.	8ee\L	.	8gg\L	.	.	.	.	.	.	.	.	.	.
4r	8dd\	.	8ff\	.	8r	.	8r	.	8r	.	.	.	8r
.	8cc\J	.	8een\J	.	8A\	sub	8A/	sub	8cc\	sub	.	.	8ccc\
=58	=58	=58	=58	=58	=58	=58	=58	=58	=58	=58	=58	=58	=58
!	!LO:TX:a:t=1.	!	!LO:TX:a:t=1	!	!	!	!	!	!	!	!LO:N:vis=00	!LO:N:vis=00	!
4F\	2.r	.	2.r	.	8.c\	pon-	8.c\	pon-	8.ff\	pon-	0.r	0.r	8.fff\L
.	.	.	.	.	16A\	-ti-	16A/	-ti-	16cc\	-ti-	.	.	16ccc\Jk
4F\	.	.	.	.	8A\	-o	8A/	-o	8cc\	-o	.	.	8ccc\L
.	.	.	.	.	8A\	Pi-	8A/	Pi-	8cc\	pi-	.	.	8ccc\J
4F\	.	.	.	.	16B-\LL	-la-	16B-/LL	-la-	16dd\LL	-la-	.	.	16ddd\LL
.	.	.	.	.	16A\JJ	.	16A/JJ	.	16cc\JJ	.	.	.	16ccc\
.	.	.	.	.	16G\LL	-to	16G/LL	-to,	16b-\LL	-to	.	.	16bb-\
.	.	.	.	.	16F\JJ	.	16F/JJ	.	16a\JJ	.	.	.	16aa\JJ
=59	=59	=59	=59	=59	=59	=59	=59	=59	=59	=59	=59	=59	=59
4C\	4r	.	4r	.	8G\L	paſ-	8G/L	paſ-	8b-\L	paſ-	.	.	8bb-\L
.	.	.	.	.	8B-\J	-sus	8B-/J	-sus	8dd\J	-sus	.	.	8ddd\J
8r	8r	.	8r	.	4.C/	et	4.C/	et	4.g\	.	.	.	4.gg\
8G\L	8ee\L	.	8gg\L	.	.	.	.	.	.	.	.	.	.
8E\	8ff\	.	8aa\	.	.	.	.	.	.	.	.	.	.
8C\J	8gg\J	.	8bb-\J	.	8G\	.	8G/	.	8b-\	et	.	.	8bb-\
!	!	!	!	!	!LO:PB:g=original	!	!	!	!	!	!	!	!
=60	=60	=60	=60	=60	=60	=60	=60	=60	=60	=60	=60	=60	=60
4F\	8ff\L	.	8aa\L	.	4.F\	et	4.F/	et	4.a\	se-	.	.	4.aa\
.	8ff\J	.	8aa\J	.	.	.	.	.	.	.	.	.	.
4B-\	8r	.	8r	.	.	.	.	.	.	.	.	.	.
.	8b-\	.	8gg\	.	8A\	se-	8A/	se-	16b-\LL	-pul-	.	.	16bb-\LL
.	.	.	.	.	.	.	.	.	16dd\JJ	.	.	.	16gg\JJ
!	!	!	!	!	!	!	!LO:LB:g=original	!	!	!	!	!	!
4c\	8r	.	8r	.	8B-\	-pul-	8B-\	-pul-	8cc\	-tus	.	.	16gg\LL
.	.	.	.	.	.	.	.	.	.	.	.	.	16ff\
.	8g/	.	8ee\	.	8c\	-tus	8c\	-tus	8ee\	.	.	.	16ff\
.	.	.	.	.	.	.	.	.	.	.	.	.	16ee\JJ
=61	=61	=61	=61	=61	=61	=61	=61	=61	=61	=61	=61	=61	=61
4F\	4a/	.	4ff\	.	4F\	eſt	4F/	est,	4ff\	eſt	.	.	4ff\
4D\	8r	.	8r	.	8r	.	8r	.	8r	.	.	.	8r
.	8dd\L	.	8ff\L	.	8d\	se-	8d\	se-	8ff\	se-	.	.	8ddd\L
4BBn/	8cc\	.	8dd\	.	8B-\	-pul-	8B-\	-pul-	8ff\	-pul-	.	.	8fff\
.	8dd\J	.	8ff\J	.	8d\	-tus	8d\	-tus	8ff\	-tus	.	.	8fff\J
!LO:LB:g=original	!	!	!	!	!	!	!	!	!	!	!	!	!
=62	=62	=62	=62	=62	=62	=62	=62	=62	=62	=62	=62	=62	=62
4C;/	4cc;\	.	4ee;\	.	4c\	eſt	4c\	est,	4ee\	eſt	2.r;	2.r;	4eee;\
4r	2r	.	4r	.	4r	.	4r	.	4r	.	.	.	4r
4r	.	.	4r	.	4r	.	4r	.	4r	.	.	.	4r
!	!LO:LB:g=original	!	!LO:LB:g=original	!	!	!	!	!	!LO:LB:g=original	!	!LO:LB:g=original	!	!
=63||	=63||	=63||	=63||	=63||	=63	=63	=63	=63	=63	=63	=63	=63	=63
*>C	*>C	*	*>C	*	*>C	*	*>C	*	*>C	*	*>C	*>C	*>C
*	*^	*	*	*	*	*	*	*	*	*	*	*	*
*	*tremolo	*tremolo	*	*	*	*	*	*	*	*	*	*	*	*
!LO:TX:a:t=All(egr)o	!LO:TX:a:t=All(egr)o	!	!	!LO:TX:a:t=All(egr)o	!	!LO:TX:a:t=All(egr)o	!	!LO:TX:a:t=All(egr)o	!	!LO:TX:a:t=All(egr)o:	!	!LO:TX:a:t=All(egr)o:	!LO:TX:a:t=All(egr)o:	!LO:TX:a:t=All(egr)o:
8F\L	16a/L	16f\L	.	8f/L 8a 8ff	.	4F\	Et	4F/	Et	4ff\	Et	2.A/	2.f\	2.fff\
.	16a/	16f\	.	.	.	.	.	.	.	.	.	.	.	.
8C\J	16a/	16f\	.	(32f/LL	.	.	.	.	.	.	.	.	.	.
.	.	.	.	32e/	.	.	.	.	.	.	.	.	.	.
.	16a/	16f\	.	32f/	.	.	.	.	.	.	.	.	.	.
.	.	.	.	32g/JJJ)	.	.	.	.	.	.	.	.	.	.
*tremolo	*	*	*	*	*	*	*	*	*	*	*	*	*	*
!	!	!	!	!LO:TX:a:t=problem:mixed beam	!	!	!	!	!	!	!	!	!	!
8F\L	16a/	16f\	.	8f/L	.	4A\	re-	4A\	re-	4ff\	re-	.	.	.
.	16a/	16f\	.	.	.	.	.	.	.	.	.	.	.	.
8C\	16a/	16f\	.	8ff\J	.	.	.	.	.	.	.	.	.	.
.	16a/	16f\	.	.	.	.	.	.	.	.	.	.	.	.
8F\	16a/	16f\	.	16aa\LL	.	4c\	-sur-	4c\	-sur-	4ff\	-sur-	.	.	.
.	16a/	16f\	.	16gg\	.	.	.	.	.	.	.	.	.	.
8C\J	16a/	16f\	.	16gg\	.	.	.	.	.	.	.	.	.	.
.	16a/J	16f\J	.	16ff\JJ	.	.	.	.	.	.	.	.	.	.
=64	=64	=64	=64	=64	=64	=64	=64	=64	=64	=64	=64	=64	=64	=64
*	*	*	*	*^	*	*	*	*	*	*	*	*	*	*
*	*	*tremolo	*	*	*	*	*	*	*	*	*	*	*	*	*
8E\L	16b-/L	16g\L	.	8gg/	8cc\L	.	2c\	-re-	2c\	-re-	4ee\	-re-	2.c/	2.g\	2.eee\
.	16b-/	16g\	.	.	.	.	.	.	.	.	.	.	.	.	.
8C\	16b-/	16g\	.	8ryy	(32cc\LL	.	.	.	.	.	.	.	.	.	.
.	.	.	.	.	32bn\	.	.	.	.	.	.	.	.	.	.
.	16b-/	16g\	.	.	32cc\	.	.	.	.	.	.	.	.	.	.
.	.	.	.	.	32dd\JJJ)	.	.	.	.	.	.	.	.	.	.
8E\	16b-/	16g\	.	2ryy	8cc\L	.	.	.	.	.	2ee\	-xit	.	.	.
.	16b-/	16g\	.	.	.	.	.	.	.	.	.	.	.	.	.
8C\	16b-/	16g\	.	.	8gg\J	.	.	.	.	.	.	.	.	.	.
.	16b-/	16g\	.	.	.	.	.	.	.	.	.	.	.	.	.
8E\	16b-/	16g\	.	.	16bb-\LL	.	4c\	-xit	4c\	-xit	.	.	.	.	.
.	16b-/	16g\	.	.	16aa\	.	.	.	.	.	.	.	.	.	.
8C\J	16b-/	16g\	.	.	16aa\	.	.	.	.	.	.	.	.	.	.
.	16b-/J	16g\J	.	.	16gg\JJ	.	.	.	.	.	.	.	.	.	.
*	*Xtremolo	*Xtremolo	*	*	*	*	*	*	*	*	*	*	*	*	*
*	*v	*v	*	*	*	*	*	*	*	*	*	*	*	*	*
*	*	*	*v	*v	*	*	*	*	*	*	*	*	*	*
=65	=65	=65	=65	=65	=65	=65	=65	=65	=65	=65	=65	=65	=65
!LO:TX:a:t=problem:mixed beam	!	!	!	!	!	!	!	!	!	!	!	!	!
8F\L	16ff\LL	.	16aa\LL	.	8F\	ter-	8F/	ter-	8aa\	Ter-	4f\	4a\	2fff\
.	16aa\	.	16ccc\	.	.	.	.	.	.	.	.	.	.
8A\	16ff\	.	16aa\	.	16A\	-tia	16A/	-tia	16ff\	-ti-	.	.	.
.	16a\JJ	.	16ff\JJ	.	16A\	.	16A/	.	16ff\	-a	.	.	.
8B-\	8cc\L	.	(8aa\L	.	4B-\	di e	4B-\	di e	8gg\	Di-	4g\	4b-\	.
8G\	8b-\	.	8gg\)	.	.	.	.	.	8ee\	-e	.	.	.
8c\	8a\	.	(8ff\	.	4c\	.	4c\	.	4cc\	.	4c/	4g\	4eee\
8C/J	8g\J	.	8ee\J)	.	.	.	.	.	.	.	.	.	.
!	!	!	!	!	!	!	!	!	!	!	!	!	!LO:LB:g=original
=66	=66	=66	=66	=66	=66	=66	=66	=66	=66	=66	=66	=66	=66
*	*^	*	*^	*	*	*	*	*	*	*	*	*	*
*	*tremolo	*tremolo	*	*	*	*	*	*	*	*	*	*	*	*	*
8F\L	16a/L	16f\L	.	8ff/	8a\	.	4A\	se-	4A/	se-	4ff\	se-	2.A/	2.f\	2.fff\
.	16a/	16f\	.	.	.	.	.	.	.	.	.	.	.	.	.
8C\	16a/	16f\	.	8ryy	32f/LLL	.	.	.	.	.	.	.	.	.	.
.	.	.	.	.	32e/	.	.	.	.	.	.	.	.	.	.
.	16a/	16f\	.	.	32f/	.	.	.	.	.	.	.	.	.	.
.	.	.	.	.	32g/JJJ	.	.	.	.	.	.	.	.	.	.
!	!	!	!	!	!LO:TX:a:t=problem:mixed beam	!	!	!	!	!	!	!	!	!	!
8F\	16a/	16f\	.	2ryy	8f/L	.	4A\	-cun-	4A/	-cun-	4ff\	-cun-	.	.	.
.	16a/	16f\	.	.	.	.	.	.	.	.	.	.	.	.	.
8C\	16a/	16f\	.	.	8ff\J	.	.	.	.	.	.	.	.	.	.
.	16a/	16f\	.	.	.	.	.	.	.	.	.	.	.	.	.
8F\	16a/	16f\	.	.	16aa\LL	.	8A\	-dum	8A/	-dum	8ff\	-dum	.	.	.
.	16a/	16f\	.	.	16gg\	.	.	.	.	.	.	.	.	.	.
8C\J	16a/	16f\	.	.	16gg\	.	8A\	scri-	8A/	scri-	8ff\	scri-	.	.	.
.	16a/J	16f\J	.	.	16ff\JJ	.	.	.	.	.	.	.	.	.	.
*	*	*	*	*v	*v	*	*	*	*	*	*	*	*	*	*
!	!	!	!	!	!	!	!	!LO:LB:g=original	!	!	!	!	!	!
=67	=67	=67	=67	=67	=67	=67	=67	=67	=67	=67	=67	=67	=67	=67
*	*	*tremolo	*	*	*	*	*	*	*	*	*	*	*	*
8E\L	16b-/L	16g\L	.	8cc\L 8gg	.	4d\	-ptu-	4d\	-ptu-	4gg\	-ptu-	2.c/	2.g\	2.eee\
.	16b-/	16g\	.	.	.	.	.	.	.	.	.	.	.	.
8C\	16b-/	16g\	.	(32cc\LL	.	.	.	.	.	.	.	.	.	.
.	.	.	.	32bn\	.	.	.	.	.	.	.	.	.	.
.	16b-/	16g\	.	32cc\	.	.	.	.	.	.	.	.	.	.
.	.	.	.	32dd\JJJ)	.	.	.	.	.	.	.	.	.	.
8E\	16b-/	16g\	.	8cc\L	.	4d\	-ras	4d\	-ras,	4gg\	-ras	.	.	.
.	16b-/	16g\	.	.	.	.	.	.	.	.	.	.	.	.
8C\	16b-/	16g\	.	8gg\J	.	.	.	.	.	.	.	.	.	.
.	16b-/	16g\	.	.	.	.	.	.	.	.	.	.	.	.
8E\	16b-/	16g\	.	16bb-\LL	.	8d\	et	8d\	et	8gg\	.	.	.	.
.	16b-/	16g\	.	16aa\	.	.	.	.	.	.	.	.	.	.
8C\J	16b-/	16g\	.	16aa\	.	8d\	as-	8d\	as-	8gg\	a-	.	.	.
.	16b-/J	16g\J	.	16gg\JJ	.	.	.	.	.	.	.	.	.	.
*	*Xtremolo	*Xtremolo	*	*	*	*	*	*	*	*	*	*	*	*
*	*v	*v	*	*	*	*	*	*	*	*	*	*	*	*
!	!	!	!LO:LB:g=original	!	!LO:LB:g=original	!	!	!	!	!	!	!	!
=68	=68	=68	=68	=68	=68	=68	=68	=68	=68	=68	=68	=68	=68
!LO:TX:a:t=problem:mixed beam	!	!	!	!	!	!	!	!	!	!	!	!	!
8F\L	16ff\LL	.	16aa\LL	.	8F\	-cen-	8F/	-cen-	8aa\	-scen-	4f\	4a\	2fff\
.	16aa\	.	16ccc\	.	.	.	.	.	.	.	.	.	.
8A\	16ff\	.	16aa\	.	16A\	-dit	16A/	-dit	16aa\	-dit	.	.	.
.	16a\JJ	.	16ff\JJ	.	16A\	in	16A/	in	16ff\	in	.	.	.
8B-\	8cc\L	.	8aa\L	.	4B-\	Cae-	4B-\	Cae-	4gg\	Cae-	4g\	4b-\	.
8G\	8b-\	.	8gg\	.	.	.	.	.	.	.	.	.	.
8c\	8a\	.	8ff\	.	4c\	.	4c\	.	4ee\	.	4c/	4g\	4eee\
8C/J	8g\J	.	8ee\J	.	.	.	.	.	.	.	.	.	.
=69	=69	=69	=69	=69	=69	=69	=69	=69	=69	=69	=69	=69	=69
*	*^	*	*	*	*	*	*	*	*	*	*	*	*
*	*tremolo	*tremolo	*	*	*	*	*	*	*	*	*	*	*	*
8F\L	16a/LL	16f\LL	.	8ff\L	.	4F\	-lum	4F/	-lum,	4ff\	-lum	8A/L	8f\L	4fff\
.	16a/	16f\	.	.	.	.	.	.	.	.	.	.	.	.
8A\	16a/	16f\	.	(32cc\LL	.	.	.	.	.	.	.	8A/J	8f\J	.
.	.	.	.	32b-\	.	.	.	.	.	.	.	.	.	.
.	16a/JJ	16f\JJ	.	32a\	.	.	.	.	.	.	.	.	.	.
.	.	.	.	32g\JJJ)	.	.	.	.	.	.	.	.	.	.
*	*Xtremolo	*Xtremolo	*	*	*	*	*	*	*	*	*	*	*	*
8B-\	4a/	4f\	.	4f/	.	4r	.	4r	.	4r	.	4A/	4f\	4fff\
8c\J	.	.	.	.	.	.	.	.	.	.	.	.	.	.
4F\	4r	4ryy	.	4r	.	4r	.	4r	.	4r	.	4r	4r	4r
*	*v	*v	*	*	*	*	*	*	*	*	*	*	*	*
!LO:LB:g=original	!	!	!	!	!	!	!	!	!LO:LB:g=original	!	!	!	!
=70	=70	=70	=70	=70	=70	=70	=70	=70	=70	=70	=70	=70	=70
*	*tremolo	*	*	*	*	*	*	*	*	*	*	*	*
!LO:TX:a:t=problem:mixed beam	!	!	!	!	!	!	!	!	!	!	!	!	!
8F\L	16c/L 16a	.	16aa\LL	.	4F\	Se-	4F/	Se-	4aa\	Se-	2.f\	2.a\	2.fff\
.	16c/ 16a	.	16ff\	.	.	.	.	.	.	.	.	.	.
8FF/	16c/ 16a	.	16cc\	.	.	.	.	.	.	.	.	.	.
.	16c/ 16a	.	16ff\JJ	.	.	.	.	.	.	.	.	.	.
8AA/	16c/ 16a	.	16a/LL	.	8F\	-det	8F/	-det	8aa\	-det	.	.	.
.	16c/ 16a	.	16cc/	.	.	.	.	.	.	.	.	.	.
8C/J	16c/ 16a	.	16f/	.	8F\	ad	8F/	ad	8aa\	ad	.	.	.
.	16c/ 16a	.	16a/JJ	.	.	.	.	.	.	.	.	.	.
!LO:TX:a:t=problem:mixed beam	!	!	!	!	!	!	!	!	!	!	!	!	!
8F\L	16c/ 16a	.	16c/LL	.	16F\	dex-	16F/	dex-	8aa\	dex-	.	.	.
.	16c/ 16a	.	16f/	.	16F\	-te-	16F/	-te-	.	.	.	.	.
8FF/J	16c/ 16a	.	16a/	.	8F\	-ram	8F/	-ram	16aa\	-te-	.	.	.
.	16c/J 16a	.	16cc/JJ	.	.	.	.	.	16aa\	-ram	.	.	.
=71	=71	=71	=71	=71	=71	=71	=71	=71	=71	=71	=71	=71	=71
*	*tremolo	*	*tremolo	*	*	*	*	*	*	*	*	*	*
!LO:TX:a:t=problem:mixed beam	!	!	!	!	!	!	!	!	!	!	!	!	!
8F\L	16c/L 16a	.	16ccc\LL	.	2F\	Pa-	2F/	Pa-	4aa\	Pa-	2.f\	2.a\	2.fff\
.	16c/ 16a	.	16ccc\	.	.	.	.	.	.	.	.	.	.
8FF/	16c/ 16a	.	16ccc\	.	.	.	.	.	.	.	.	.	.
.	16c/ 16a	.	16ccc\JJ	.	.	.	.	.	.	.	.	.	.
8AA/	16c/ 16a	.	16aa\LL	.	.	.	.	.	4aa\	-tris	.	.	.
.	16c/ 16a	.	16aa\	.	.	.	.	.	.	.	.	.	.
8C/J	16c/ 16a	.	16aa\	.	.	.	.	.	.	.	.	.	.
.	16c/ 16a	.	16aa\JJ	.	.	.	.	.	.	.	.	.	.
!LO:TX:a:t=problem:mixed beam	!	!	!	!	!	!	!	!	!	!	!	!	!
8F\L	16c/ 16a	.	16ff\LL	.	8F\	-tris	8F/	-tris	4aa\	et	.	.	.
.	16c/ 16a	.	16ff\	.	.	.	.	.	.	.	.	.	.
8FF/J	16c/ 16a	.	16ff\	.	8F\	et	8F/	et	.	.	.	.	.
.	16c/J 16a	.	16ff\JJ	.	.	.	.	.	.	.	.	.	.
=72	=72	=72	=72	=72	=72	=72	=72	=72	=72	=72	=72	=72	=72
*	*	*	*	*	*	*	*	*	*	*	*	*	*
8E\L	16G/L 16e	.	16gg\LL	.	8c\	i_te-	8c\	i_te-	8gg\	i_te-	2.c/	2.g\	2.eee\
.	16G/ 16e	.	16ee\	.	.	.	.	.	.	.	.	.	.
8C\	16G/ 16e	.	16cc\	.	8c\	-rum	8c\	-rum	8gg\	-rum	.	.	.
.	16G/ 16e	.	16ee\JJ	.	.	.	.	.	.	.	.	.	.
8E\	16G/ 16e	.	16g/LL	.	8c\	.	8c\	.	8gg\	ven-	.	.	.
.	16G/ 16e	.	16cc/	.	.	.	.	.	.	.	.	.	.
!	!	!	!	!	!	!	!LO:LB:g=original	!	!	!	!	!	!
8C\	16G/ 16e	.	16e/	.	8c\	ven-	8c\	ven-	8gg\	-tu-	.	.	.
.	16G/ 16e	.	16g/JJ	.	.	.	.	.	.	.	.	.	.
8E\	16G/ 16e	.	16c/LL	.	8c\	-tu-	8c\	-tu-	8gg\	-rus	.	.	.
.	16G/ 16e	.	16e/	.	.	.	.	.	.	.	.	.	.
8C\J	16G/ 16e	.	16g/	.	8c\	-rus	8c\	-rus	8gg\	.	.	.	.
.	16G/J 16e	.	16cc/JJ	.	.	.	.	.	.	.	.	.	.
=73	=73	=73	=73	=73	=73	=73	=73	=73	=73	=73	=73	=73	=73
!LO:TX:a:t=problem:mixed beam	!	!	!	!	!	!	!LO:TX:a:t=problem:skreślona nuta	!	!	!	!	!	!
8E\L	16G/L 16e	.	16ccc\LL	.	2c\	eſt	2c\	est	2gg\	eſt	2.c/	2.g\	2.eee\
.	16G/ 16e	.	16ccc\	.	.	.	.	.	.	.	.	.	.
8C\	16G/ 16e	.	16ccc\	.	.	.	.	.	.	.	.	.	.
.	16G/ 16e	.	16ccc\JJ	.	.	.	.	.	.	.	.	.	.
8E\	16G/ 16e	.	16gg\LL	.	.	.	.	.	.	.	.	.	.
.	16G/ 16e	.	16gg\	.	.	.	.	.	.	.	.	.	.
8G\	16G/ 16e	.	16gg\	.	.	.	.	.	.	.	.	.	.
.	16G/ 16e	.	16gg\JJ	.	.	.	.	.	.	.	.	.	.
8c\	16G/ 16e	.	16ee\LL	.	4C/	cum	4C/	cum	4gg\	Cum	.	.	.
.	16G/ 16e	.	16ee\	.	.	.	.	.	.	.	.	.	.
8C/J	16G/ 16e	.	16ee\	.	.	.	.	.	.	.	.	.	.
.	16G/J 16e	.	16ee\JJ	.	.	.	.	.	.	.	.	.	.
!	!	!	!	!	!	!	!	!	!	!	!	!LO:LB:g=original	!
=74	=74	=74	=74	=74	=74	=74	=74	=74	=74	=74	=74	=74	=74
*tremolo	*	*	*	*	*	*	*	*	*	*	*	*	*
!	!	!	!	!	!	!	!	!	!	!	!	!LO:TX:a:t=3.	!
!	!	!	!	!	!	!	!	!	!	!	!LO:N:vis=0	!LO:N:vis=0	!
8G\L	16dd\LL	.	16ff\LL	.	4d\	glo-	4d\	glo-	4ff\	glo-	1.r	1.r	4fff\
.	16dd\	.	16ff\	.	.	.	.	.	.	.	.	.	.
8G\	16dd\	.	16ff\	.	.	.	.	.	.	.	.	.	.
.	16dd\JJ	.	16ff\JJ	.	.	.	.	.	.	.	.	.	.
!	!LO:LB:g=original	!	!	!	!	!	!	!	!	!	!	!	!
8G\	16bn\LL	.	16dd\LL	.	4G\	-ri-	4G/	-ri-	4dd\	-ri-	.	.	4ddd\
.	16bn\	.	16dd\	.	.	.	.	.	.	.	.	.	.
8G\	16bn\	.	16dd\	.	.	.	.	.	.	.	.	.	.
.	16bn\JJ	.	16dd\JJ	.	.	.	.	.	.	.	.	.	.
8G\	16dd\LL	.	16ff\LL	.	4d\	-a	4d\	-a	4ff\	-a	.	.	4fff\
.	16dd\	.	16ff\	.	.	.	.	.	.	.	.	.	.
8G\J	16dd\	.	16ff\	.	.	.	.	.	.	.	.	.	.
.	16dd\JJ	.	16ff\JJ	.	.	.	.	.	.	.	.	.	.
!	!	!	!	!	!LO:LB:g=original	!	!	!	!	!	!	!	!
=75	=75	=75	=75	=75	=75	=75	=75	=75	=75	=75	=75	=75	=75
8C/L	16cc\LL	.	16ee\LL	.	4c\	Ju-	4c\	ju-	4ee\	Ju-	.	.	4eee\
.	16cc\	.	16ee\	.	.	.	.	.	.	.	.	.	.
8C/	16cc\	.	16ee\	.	.	.	.	.	.	.	.	.	.
.	16cc\JJ	.	16ee\JJ	.	.	.	.	.	.	.	.	.	.
8C/	16ee\LL	.	16gg\LL	.	4d\	-di-	4d\	-di-	4ff\	-di-	.	.	4ccc\
.	16ee\	.	16gg\	.	.	.	.	.	.	.	.	.	.
8C/	16ee\	.	16gg\	.	.	.	.	.	.	.	.	.	.
.	16ee\JJ	.	16gg\JJ	.	.	.	.	.	.	.	.	.	.
8C/	16ff\LL	.	16aa\LL	.	4e\	-ca_re	4e\	-ca_re	4gg\	-ca_re	.	.	4r
.	16ff\	.	16aa\	.	.	.	.	.	.	.	.	.	.
8C/J	16ff\	.	16aa\	.	.	.	.	.	.	.	.	.	.
.	16ff\JJ	.	16aa\JJ	.	.	.	.	.	.	.	.	.	.
=76	=76	=76	=76	=76	=76	=76	=76	=76	=76	=76	=76	=76	=76
8C/L	16gg\LL	.	16bb-\LL	.	4e\	vi-	4e\	vi-	4gg\	vi-	2.r	2.r	4bb-\
.	16gg\	.	16bb-\	.	.	.	.	.	.	.	.	.	.
8C/	16gg\	.	16bb-\	.	.	.	.	.	.	.	.	.	.
.	16gg\JJ	.	16bb-\JJ	.	.	.	.	.	.	.	.	.	.
8C/	16ff\LL	.	16aa\LL	.	4d\	-vos	4d\	-vos	4ff\	-vos	.	.	4aa\
.	16ff\	.	16aa\	.	.	.	.	.	.	.	.	.	.
8C/	16ff\	.	16aa\	.	.	.	.	.	.	.	.	.	.
.	16ff\JJ	.	16aa\JJ	.	.	.	.	.	.	.	.	.	.
8C/	16ee\LL	.	16gg\LL	.	4c\	et	4c\	et	4ee\	et	.	.	4gg\
.	16ee\	.	16gg\	.	.	.	.	.	.	.	.	.	.
8C/J	16ee\	.	16gg\	.	.	.	.	.	.	.	.	.	.
.	16ee\JJ	.	16gg\JJ	.	.	.	.	.	.	.	.	.	.
*	*	*	*Xtremolo	*	*	*	*	*	*	*	*	*	*
*	*Xtremolo	*	*	*	*	*	*	*	*	*	*	*	*
*Xtremolo	*Xtremolo	*	*Xtremolo	*	*	*	*	*	*	*	*	*	*
=77	=77	=77	=77	=77	=77	=77	=77	=77	=77	=77	=77	=77	=77
4F\	4ff\	.	4f/ 4cc 4aa	.	8c\	mor-	8c\	mor-	8ff\	mor-	4f\	4g\	4aa\
.	.	.	.	.	8c\	-tu-	8c\	-tu-	8ff\	-tu-	.	.	.
4C/	4ee\	.	4e/ 4cc 4gg	.	4Bn\	-os	4Bn\	-os	4ee\	-os	4c/	4g\	4gg\
4r	4r	.	4r	.	4r	.	4r	.	4r	.	4r	4r	4r
!	!	!	!LO:LB:g=original	!	!	!	!	!	!LO:PB:g=original	!	!	!	!
=78	=78	=78	=78	=78	=78	=78	=78	=78	=78	=78	=78	=78	=78
*	*tremolo	*	*	*	*	*	*	*	*	*	*	*	*
4r	16cc\L	.	4r	.	4r	.	4r	.	4r	.	2.c/	2.g\	4r
.	16cc\	.	.	.	.	.	.	.	.	.	.	.	.
.	16cc\	.	.	.	.	.	.	.	.	.	.	.	.
.	16cc\	.	.	.	.	.	.	.	.	.	.	.	.
4C\	16cc\	.	4e/ 4cc 4gg	.	4Bn\	cu-	4Bn\	Cu-	4ee\	cu-	.	.	4gg\
.	16cc\	.	.	.	.	.	.	.	.	.	.	.	.
.	16cc\	.	.	.	.	.	.	.	.	.	.	.	.
.	16cc\	.	.	.	.	.	.	.	.	.	.	.	.
4F\	16cc\	.	4f/ 4cc 4aa	.	4c\	-jus	4c\	-jus	4ff\	-jus	.	.	4aa\
.	16cc\	.	.	.	.	.	.	.	.	.	.	.	.
.	16cc\	.	.	.	.	.	.	.	.	.	.	.	.
.	16cc\J	.	.	.	.	.	.	.	.	.	.	.	.
!LO:LB:g=original	!	!	!	!	!	!	!LO:LB:g=original	!	!	!	!	!	!
=79	=79	=79	=79	=79	=79	=79	=79	=79	=79	=79	=79	=79	=79
4r	16cc\L	.	4r	.	4r	.	4r	.	4r	.	2.c/	2.g\	4r
.	16cc\	.	.	.	.	.	.	.	.	.	.	.	.
.	16cc\	.	.	.	.	.	.	.	.	.	.	.	.
.	16cc\	.	.	.	.	.	.	.	.	.	.	.	.
4G\	16cc\	.	4e/ 4cc 4bb-	.	4d\	Reg-	4d\	Reg-	4gg\	Reg-	.	.	4bb-\
.	16cc\	.	.	.	.	.	.	.	.	.	.	.	.
.	16cc\	.	.	.	.	.	.	.	.	.	.	.	.
.	16cc\	.	.	.	.	.	.	.	.	.	.	.	.
4F\	16cc\	.	4f/ 4cc 4aa	.	8c\	-ni	8c\	-ni	8ff\	-ni	.	.	4aa\
.	16cc\	.	.	.	.	.	.	.	.	.	.	.	.
.	16cc\	.	.	.	8A\	non	8A/	non	8cc\	non	.	.	.
.	16cc\J	.	.	.	.	.	.	.	.	.	.	.	.
!	!	!	!	!	!	!	!	!	!	!	!	!	!LO:LB:g=original
=80	=80	=80	=80	=80	=80	=80	=80	=80	=80	=80	=80	=80	=80
4B-\	8b-\L	.	8dd\L	.	8B-\	e-	8B-/	e-	8dd\	e-	2.c/	2.g\	4bb-\
.	16dd\L	.	16bb-\L	.	8G\	-rit	8G/	-rit	8gg\	-rit	.	.	.
.	16b-\JJ	.	16gg\JJ	.	.	.	.	.	.	.	.	.	.
4c\	4a/	.	4ff\	.	4c\	.	4c\	fi-	4ff\	fi-	.	.	4aa\
4C/	4g/	.	4ee\	.	4C/	fi-	4C/	.	4ee\	.	.	.	4gg\
!	!	!	!	!	!	!	!	!	!	!	!LO:PB:g=original	!	!
=81	=81	=81	=81	=81	=81	=81	=81	=81	=81	=81	=81	=81	=81
4F\	4a/	.	4a\ 4ff	.	4F\	-nis	4F/	-nis	4ff\	-nis	4f\	4a\	4ff\
4FF/	4a/	.	4a\ 4ff	.	4r	.	4r	.	4r	.	4f\	4a\	4ff\
4r	4r	.	4r	.	4r	.	4r	.	4r	.	4r	4r	4r
=82	=82	=82	=82	=82	=82	=82	=82	=82	=82	=82	=82	=82	=82
!	!	!	!LO:TX:a:t=problem:repetycja tt. 78-81	!	!	!	!	!	!	!	!	!	!
4r	16cc\L	.	4ryy	.	4r	.	4r	.	4r	.	2.c/	2.g\	4r
.	16cc\	.	.	.	.	.	.	.	.	.	.	.	.
.	16cc\	.	.	.	.	.	.	.	.	.	.	.	.
.	16cc\	.	.	.	.	.	.	.	.	.	.	.	.
4C\	16cc\	.	4e/yy 4ccyy 4ggyy	.	4Bn\	Cu-	4Bn\	Cu-	4ee\	cu-	.	.	4gg\
.	16cc\	.	.	.	.	.	.	.	.	.	.	.	.
.	16cc\	.	.	.	.	.	.	.	.	.	.	.	.
.	16cc\	.	.	.	.	.	.	.	.	.	.	.	.
4F\	16cc\	.	4f/yy 4ccyy 4aayy	.	4c\	-jus	4c\	-jus	4ff\	-jus	.	.	4aa\
.	16cc\	.	.	.	.	.	.	.	.	.	.	.	.
.	16cc\	.	.	.	.	.	.	.	.	.	.	.	.
.	16cc\J	.	.	.	.	.	.	.	.	.	.	.	.
!	!	!	!	!	!LO:LB:g=original	!	!	!	!	!	!	!	!
=83	=83	=83	=83	=83	=83	=83	=83	=83	=83	=83	=83	=83	=83
4r	16cc\L	.	4ryy	.	4r	.	4r	.	4r	.	2.c/	2.g\	4r
.	16cc\	.	.	.	.	.	.	.	.	.	.	.	.
.	16cc\	.	.	.	.	.	.	.	.	.	.	.	.
.	16cc\	.	.	.	.	.	.	.	.	.	.	.	.
4G\	16cc\	.	4e/yy 4ccyy 4bb-yy	.	4d\	Re-	4d\	Re-	4gg\	Re-	.	.	4bb-\
.	16cc\	.	.	.	.	.	.	.	.	.	.	.	.
.	16cc\	.	.	.	.	.	.	.	.	.	.	.	.
.	16cc\	.	.	.	.	.	.	.	.	.	.	.	.
4F\	16cc\	.	4f/yy 4ccyy 4aayy	.	8c\	-gni	8c\	-gni	8ff\	-gni	.	.	4aa\
.	16cc\	.	.	.	.	.	.	.	.	.	.	.	.
.	16cc\	.	.	.	8A\	non	8A\	non	8cc\	non	.	.	.
.	16cc\J	.	.	.	.	.	.	.	.	.	.	.	.
=84	=84	=84	=84	=84	=84	=84	=84	=84	=84	=84	=84	=84	=84
4B-\	8b-\L	.	8dd\Lyy	.	8B-\	e-	8B-\	e-	8dd\	e-	2.c/	2.g\	4bb-\
.	16dd\L	.	16bb-\Lyy	.	8G\	-rit	8G/	-rit	8gg\	-rit	.	.	.
.	16b-\JJ	.	16gg\JJyy	.	.	.	.	.	.	.	.	.	.
4c\	4a/	.	4ff\yy	.	4c\	fi-	4c\	fi-	4ff\	.	.	.	4aa\
4C/	4g/	.	4ee\yy	.	4C/	.	4C/	.	4ee\	fi-	.	.	4gg\
=85	=85	=85	=85	=85	=85	=85	=85	=85	=85	=85	=85	=85	=85
4F\	4a/	.	4a\yy 4ffyy	.	4F\	-nis	4F/	-nis	4ff\	-nis	4f\	4a\	4ff\
4FF/	4a/	.	4a\yy 4ffyy	.	4r	.	4r	.	4r	.	4f\	4a\	4ff\
4r	4r	.	4ryy	.	4r	.	4r	.	4r	.	4r	4r	4r
*	*Xtremolo	*	*	*	*	*	*	*	*	*	*	*	*
!	!LO:LB:g=original	!	!	!	!	!	!	!	!	!	!	!	!
=86	=86	=86	=86	=86	=86	=86	=86	=86	=86	=86	=86	=86	=86
*	*^	*	*	*	*	*	*	*	*	*	*	*	*
*tremolo	*tremolo	*tremolo	*	*	*	*	*	*	*	*	*	*	*	*
8C\L	16b-X/L	16g\L	.	8cc\L 8bb-	.	4c\	Et	4c\	Et	4ee\	et	2.c/	2.g\	2.ccc\
.	16b-X/	16g\	.	.	.	.	.	.	.	.	.	.	.	.
8E\	16b-X/	16g\	.	(32cc\LL	.	.	.	.	.	.	.	.	.	.
.	.	.	.	32b-\	.	.	.	.	.	.	.	.	.	.
.	16b-X/	16g\	.	32cc\	.	.	.	.	.	.	.	.	.	.
.	.	.	.	32dd\JJJ)	.	.	.	.	.	.	.	.	.	.
8C\	16b-X/	16g\	.	8cc\L	.	4c\	vi-	4c\	vi-	4ee\	vi-	.	.	.
.	16b-X/	16g\	.	.	.	.	.	.	.	.	.	.	.	.
8E\	16b-X/	16g\	.	16bb-\L	.	.	.	.	.	.	.	.	.	.
.	16b-X/	16g\	.	16gg\JJ	.	.	.	.	.	.	.	.	.	.
!	!	!	!	!	!	!	!	!LO:LB:g=original	!	!LO:LB:g=original	!	!	!	!
8C\	16b-X/	16g\	.	16ff\LL	.	8c\	-tam	8c\	-tam	8ee\	-tam	.	.	.
.	16b-X/	16g\	.	16ee\	.	.	.	.	.	.	.	.	.	.
8E\J	16b-X/	16g\	.	16dd\	.	8c\	ven-	8c\	ven-	8ee\	ven-	.	.	.
.	16b-X/J	16g\J	.	16cc\JJ	.	.	.	.	.	.	.	.	.	.
*	*Xtremolo	*Xtremolo	*	*	*	*	*	*	*	*	*	*	*	*
*	*v	*v	*	*	*	*	*	*	*	*	*	*	*	*
=87	=87	=87	=87	=87	=87	=87	=87	=87	=87	=87	=87	=87	=87
*	*tremolo	*	*	*	*	*	*	*	*	*	*	*	*
8C\L	16c/L 16a	.	16ff\LL	.	2A\	-tu-	2A/	-tu-	2ff\	-tu-	2.f\	2.a\	2.fff\
.	16c/ 16a	.	16cc\	.	.	.	.	.	.	.	.	.	.
8F\	16c/ 16a	.	16dd\	.	.	.	.	.	.	.	.	.	.
.	16c/ 16a	.	16ee\JJ	.	.	.	.	.	.	.	.	.	.
8C\	16c/ 16a	.	16ff\LL	.	.	.	.	.	.	.	.	.	.
.	16c/ 16a	.	16gg\	.	.	.	.	.	.	.	.	.	.
8F\	16c/ 16a	.	16aa\	.	.	.	.	.	.	.	.	.	.
.	16c/ 16a	.	16bb-\JJ	.	.	.	.	.	.	.	.	.	.
8C\	16c/ 16a	.	16ccc\LL	.	4A\	-ri	4A/	-ri	4ff\	-ri	.	.	.
.	16c/ 16a	.	16aa\	.	.	.	.	.	.	.	.	.	.
8F\J	16c/ 16a	.	16gg\	.	.	.	.	.	.	.	.	.	.
.	16c/J 16a	.	16ff\JJ	.	.	.	.	.	.	.	.	.	.
=88	=88	=88	=88	=88	=88	=88	=88	=88	=88	=88	=88	=88	=88
*	*^	*	*	*	*	*	*	*	*	*	*	*	*
*	*tremolo	*tremolo	*	*	*	*	*	*	*	*	*	*	*	*
8C\L	16b-X/L	16g\L	.	8cc\L 8bb-	.	4B-\	sae-	4B-\	sae-	4ee\	sae-	2.c/	2.g\	2.ccc\
.	16b-X/	16g\	.	.	.	.	.	.	.	.	.	.	.	.
8E\	16b-X/	16g\	.	(32cc\LL	.	.	.	.	.	.	.	.	.	.
.	.	.	.	32b-\	.	.	.	.	.	.	.	.	.	.
.	16b-X/	16g\	.	32cc\	.	.	.	.	.	.	.	.	.	.
.	.	.	.	32dd\JJJ)	.	.	.	.	.	.	.	.	.	.
8C\	16b-X/	16g\	.	8cc\L	.	4B-\	-cu-	4B-\	-cu-	4ee\	-cu-	.	.	.
.	16b-X/	16g\	.	.	.	.	.	.	.	.	.	.	.	.
8E\	16b-X/	16g\	.	16bb-\L	.	.	.	.	.	.	.	.	.	.
.	16b-X/	16g\	.	16gg\JJ	.	.	.	.	.	.	.	.	.	.
8C\	16b-X/	16g\	.	16ff\LL	.	4B-\	-li	4B-\	-li	4ee\	-li	.	.	.
.	16b-X/	16g\	.	16ee\	.	.	.	.	.	.	.	.	.	.
8E\J	16b-X/	16g\	.	16dd\	.	.	.	.	.	.	.	.	.	.
.	16b-X/J	16g\J	.	16cc\JJ	.	.	.	.	.	.	.	.	.	.
*	*v	*v	*	*	*	*	*	*	*	*	*	*	*	*
!LO:LB:g=original	!	!	!	!	!	!	!	!	!	!	!	!	!
=89	=89	=89	=89	=89	=89	=89	=89	=89	=89	=89	=89	=89	=89
8C\L	16c/L 16a	.	16ff\LL	.	2A\	a-	2A/	a-	2ff\	a-	2.f\	2.a\	2.fff\
.	16c/ 16a	.	16cc\	.	.	.	.	.	.	.	.	.	.
8F\	16c/ 16a	.	16dd\	.	.	.	.	.	.	.	.	.	.
.	16c/ 16a	.	16ee\JJ	.	.	.	.	.	.	.	.	.	.
8C\	16c/ 16a	.	16ff\LL	.	.	.	.	.	.	.	.	.	.
.	16c/ 16a	.	16gg\	.	.	.	.	.	.	.	.	.	.
8F\	16c/ 16a	.	16aa\	.	.	.	.	.	.	.	.	.	.
.	16c/ 16a	.	16bb-\JJ	.	.	.	.	.	.	.	.	.	.
!	!	!	!LO:LB:g=original	!	!	!	!	!	!	!	!	!	!
8C\	16c/ 16a	.	16ccc\LL	.	4A\	-men	4A/	-men	4ff\	-men	.	.	.
.	16c/ 16a	.	16aa\	.	.	.	.	.	.	.	.	.	.
8F\J	16c/ 16a	.	16gg\	.	.	.	.	.	.	.	.	.	.
.	16c/J 16a	.	16ff\JJ	.	.	.	.	.	.	.	.	.	.
!	!	!	!	!	!	!	!	!	!	!	!	!LO:LB:g=original	!
=90	=90	=90	=90	=90	=90	=90	=90	=90	=90	=90	=90	=90	=90
*	*^	*	*	*	*	*	*	*	*	*	*	*	*
!	!	!	!	!	!	!	!	!	!	!	!	!LO:TX:a:t=4.	!LO:TX:a:t=4.	!
!	!	!	!	!	!	!	!	!	!	!	!	!LO:N:vis=00	!LO:N:vis=00	!
8B-\L	16b-X/L	16g\L	.	16dd\LL	.	2B-\	a-	2B-\	a-	2dd\	{a-	0.r	0.r	2.ddd\
.	16b-X/	16g\	.	16cc\	.	.	.	.	.	.	.	.	.	.
8B-\	16b-X/	16g\	.	16dd\	.	.	.	.	.	.	.	.	.	.
.	16b-X/	16g\	.	16ff#X\JJ	.	.	.	.	.	.	.	.	.	.
8B-\	16b-X/	16g\	.	16gg\LL	.	.	.	.	.	.	.	.	.	.
.	16b-X/	16g\	.	16aa\	.	.	.	.	.	.	.	.	.	.
8B-\	16b-X/	16g\	.	16bb-\	.	.	.	.	.	.	.	.	.	.
.	16b-X/	16g\	.	16aa\JJ	.	.	.	.	.	.	.	.	.	.
8B-\	16b-X/	16g\	.	16gg\LL	.	4B-\	-men	4B-\	-men	4dd\	-men	.	.	.
.	16b-X/	16g\	.	16ff#\	.	.	.	.	.	.	.	.	.	.
8B-\J	16b-X/	16g\	.	16ee\	.	.	.	.	.	.	.	.	.	.
.	16b-X/J	16g\J	.	16dd\JJ	.	.	.	.	.	.	.	.	.	.
=91	=91	=91	=91	=91	=91	=91	=91	=91	=91	=91	=91	=91	=91	=91
8A\L	16a/L	16f\L	.	16cc\LL	.	2A\	{a-	2A/	{a-	2cc\	a-	.	.	2.ccc\
.	16a/	16f\	.	16bn\	.	.	.	.	.	.	.	.	.	.
8A\	16a/	16f\	.	16cc\	.	.	.	.	.	.	.	.	.	.
.	16a/	16f\	.	16ee\JJ	.	.	.	.	.	.	.	.	.	.
8A\	16a/	16f\	.	16ff\LL	.	.	.	.	.	.	.	.	.	.
.	16a/	16f\	.	16gg\	.	.	.	.	.	.	.	.	.	.
8A\	16a/	16f\	.	16aa\	.	.	.	.	.	.	.	.	.	.
.	16a/	16f\	.	16gg\JJ	.	.	.	.	.	.	.	.	.	.
8A\	16a/	16f\	.	16ff\LL	.	4A\	-men	4A/	-men	4cc\	-men	.	.	.
.	16a/	16f\	.	16ee\	.	.	.	.	.	.	.	.	.	.
8A\J	16a/	16f\	.	16dd\	.	.	.	.	.	.	.	.	.	.
.	16a/J	16f\J	.	16cc\JJ	.	.	.	.	.	.	.	.	.	.
*	*v	*v	*	*	*	*	*	*	*	*	*	*	*	*
=92	=92	=92	=92	=92	=92	=92	=92	=92	=92	=92	=92	=92	=92
8G\L	16c/L 16g	.	16b-\LL	.	2G\	a-	2G/	a-	2b-\	a-	.	.	2.bb-\
.	16c/ 16g	.	16a\	.	.	.	.	.	.	.	.	.	.
8G\	16c/ 16g	.	16b-\	.	.	.	.	.	.	.	.	.	.
.	16c/ 16g	.	16dd\JJ	.	.	.	.	.	.	.	.	.	.
8G\	16c/ 16g	.	16ee\LL	.	.	.	.	.	.	.	.	.	.
.	16c/ 16g	.	16ff\	.	.	.	.	.	.	.	.	.	.
8G\	16c/ 16g	.	16gg\	.	.	.	.	.	.	.	.	.	.
.	16c/ 16g	.	16ff\JJ	.	.	.	.	.	.	.	.	.	.
8G\	16c/ 16g	.	16ee\LL	.	4G\	-men	4G/	-men	4b-\	-men}	.	.	.
.	16c/ 16g	.	16dd\	.	.	.	.	.	.	.	.	.	.
8G\J	16c/ 16g	.	16cc\	.	.	.	.	.	.	.	.	.	.
.	16c/J 16g	.	16b-\JJ	.	.	.	.	.	.	.	.	.	.
*	*Xtremolo	*Xtremolo	*	*	*	*	*	*	*	*	*	*	*
!	!	!	!	!	!LO:LB:g=original	!	!	!	!	!	!	!	!
=93	=93	=93	=93	=93	=93	=93	=93	=93	=93	=93	=93	=93	=93
*tremolo	*	*	*	*	*	*	*	*	*	*	*	*	*
8F\L	16f/LL	.	16a\LL	.	2F\	a-	2F/	a-	2a\	a-	.	.	2.aa\
.	16a/	.	16cc\	.	.	.	.	.	.	.	.	.	.
8F\	16g/	.	16b-\	.	.	.	.	.	.	.	.	.	.
.	16f/JJ	.	16a\JJ	.	.	.	.	.	.	.	.	.	.
8F\	16g/LL	.	16b-\LL	.	.	.	.	.	.	.	.	.	.
.	16a/	.	16cc\	.	.	.	.	.	.	.	.	.	.
8F\J	16b-/	.	16dd\	.	.	.	.	.	.	.	.	.	.
.	16cc/JJ	.	16ee\JJ	.	.	.	.	.	.	.	.	.	.
*Xtremolo	*	*	*	*	*	*	*	*	*	*	*	*	*
*Xtremolo	*	*	*	*	*	*	*	*	*	*	*	*	*
8A\L	8dd\L	.	8ff\L	.	4F\	-men	4F/	-men	4cc\	-men	.	.	.
8F\J	8a\J	.	8cc\J	.	.	.	.	.	.	.	.	.	.
=94	=94	=94	=94	=94	=94	=94	=94	=94	=94	=94	=94	=94	=94
!LO:TX:a:t=problem:brak taktu	!LO:TX:a:t=problem:brak taktu	!	!LO:TX:a:t=problem:brak taktu	!	!	!	!	!	!LO:TX:a:t=problem:brak taktu	!	!LO:TX:a:t=problem:brak taktu	!LO:TX:a:t=problem:brak taktu	!LO:TX:a:t=problem:brakuje taktu
2.ryy	2.ryy	.	2.ryy	.	2B-\	a-	2B-\	a-	2.ryy	.	2.ryy	2.ryy	2.ryy
.	.	.	.	.	4A\	-men}	4A/	-men}	.	.	.	.	.
!	!	!	!	!	!	!	!	!	!	!	!	!	!LO:LB:g=original
=95	=95	=95	=95	=95	=95	=95	=95	=95	=95	=95	=95	=95	=95
!LO:TX:a:t=problem:mixed beam	!	!	!	!	!	!	!	!	!	!	!	!	!
8B-\L	8b-\L	.	8dd\L	.	2B-\	am-	2B-/	am-	2dd\	{a-	4g\	4b-\	4bb-\
8G\	16dd\L	.	16bb-\L	.	.	.	.	.	.	.	.	.	.
.	16b-\JJ	.	16gg\JJ	.	.	.	.	.	.	.	.	.	.
*	*	*	*^	*	*	*	*	*	*	*	*	*	*
8c\	4a\	.	4ff/	4a\	.	.	.	.	.	.	.	4f\	4a\	4aa\
8d\	.	.	.	.	.	.	.	.	.	.	.	.	.	.
8c\	4g\	.	4ee/	4b-\	.	8A\L	.	8A/L	.	4ee\	.	4c/	4g\	4gg\
8C/J	.	.	.	.	.	8G\J	.	8G/J	.	.	.	.	.	.
=96	=96	=96	=96	=96	=96	=96	=96	=96	=96	=96	=96	=96	=96	=96
!LO:TX:a:t=problem:mixed beam	!	!	!	!	!	!	!	!	!	!	!	!	!	!
8F\L	8a\L	.	8ff/L	8a\L	.	4F\	-en	4F/	-en	4ff\	-men}	4A/	4f\	4fff\
8FF/	8cc\	.	8aa/J	8cc\J	.	.	.	.	.	.	.	.	.	.
8AA/	8a\	.	8ff/L	8a\L	.	4r	.	4r	.	4r	.	4A/	4f\	4fff\
8C/J	8cc\J	.	8aa/J	8cc\J	.	.	.	.	.	.	.	.	.	.
!LO:TX:a:t=problem:mixed beam	!	!	!	!	!	!	!	!	!	!	!	!	!	!
8F\L	8a\L	.	8ff/L	8a\L	.	4A\	a-	4A/	a-	4ff\	a-	4A/	4f\	4fff\
8FF/J	8cc\J	.	8aa/J	8cc\J	.	.	.	.	.	.	.	.	.	.
=97	=97	=97	=97	=97	=97	=97	=97	=97	=97	=97	=97	=97	=97	=97
4FF/	4a/	.	4ff/	4a\	.	4A\	-men	4A/	-men	4ff\	-men	4A/	4f\	4fff\
4r	4r	.	4r	4ryy	.	4r	.	4r	.	4r	.	4r	4r	4r
4r	4r	.	4r	4ryy	.	4r	.	4r	.	4r	.	4r	4r	4r
*	*	*	*v	*v	*	*	*	*	*	*	*	*	*	*
==	==	==	==	==	==	==	==	==	==	==	==	==	==
*-	*-	*-	*-	*-	*-	*-	*-	*-	*-	*-	*-	*-	*-
!!!system-decoration: [(g1)][(g2)][(g3)][(g4)][(g5)]
!!!RDF**kern: >= above
!!!RDF**kern: <= below
!!!ENC: Anna Matuszewska
!!!END: 2020-09-04
